saravich/MRSS_2024/data/joint_angles_obstacle.csv
Timestamp,Joint 1 Angle,Joint 2 Angle,Joint 3 Angle,Joint 4 Angle,Joint 5 Angle,Joint 6 Angle,Joint 7 Angle,Joint 8 Angle,Joint 9 Angle,Joint 10 Angle,Joint 11 Angle,Joint 12 Angle,Desired Joint 1 Angle,Desired Joint 2 Angle,Desired Joint 3 Angle,Desired Joint 4 Angle,Desired Joint 5 Angle,Desired Joint 6 Angle,Desired Joint 7 Angle,Desired Joint 8 Angle,Desired Joint 9 Angle,Desired Joint 10 Angle,Desired Joint 11 Angle,Desired Joint 12 Angle
1101,0.09161980450153351,0.8219743967056274,-1.5694659948349,-0.09652476757764816,0.8114983439445496,-1.5585660934448242,0.09107480943202972,1.0066672563552856,-1.5523895025253296,-0.09137758612632751,0.9993401169776917,-1.5530757904052734,-0.0592939630150795,0.7813542485237122,-1.2593880891799927,0.0786978229880333,0.8021330237388611,-1.2789485454559326,-0.1388324499130249,0.9691823720932007,-1.3600443601608276,0.10161452740430832,0.8988431096076965,-1.373894453048706
1102,0.07660215348005295,0.82373046875,-1.5653482675552368,-0.07787380367517471,0.8130122423171997,-1.5543272495269775,0.06364336609840393,1.0056378841400146,-1.551339864730835,-0.07315051555633545,0.9942535161972046,-1.5525106191635132,-0.029386453330516815,0.8007904291152954,-1.3223612308502197,0.06690063327550888,0.8451328873634338,-1.2909666299819946,-0.09756030887365341,0.9372773766517639,-1.3850969076156616,0.11106482893228531,0.9043329954147339,-1.3815891742706299
1103,0.07635992765426636,0.8220349550247192,-1.5673264265060425,-0.07708659023046494,0.8152527809143066,-1.5556191205978394,0.06340114772319794,1.0002484321594238,-1.5515820980072021,-0.07302939891815186,0.9904385805130005,-1.5521472692489624,-0.054408960044384,0.7952888607978821,-1.3443286418914795,0.05699751526117325,0.8404548764228821,-1.3051599264144897,-0.06533511728048325,0.9239259958267212,-1.3919575214385986,0.0752079114317894,0.895489513874054,-1.4085317850112915
1104,0.07375606149435043,0.8200365900993347,-1.5672457218170166,-0.07278718054294586,0.8137994408607483,-1.5550942420959473,0.06273504346609116,0.9961307048797607,-1.547545075416565,-0.07030442357063293,0.9844436049461365,-1.5492002964019775,-0.03166430443525314,0.8064866662025452,-1.3469222784042358,0.05626633018255234,0.8505604267120361,-1.3075140714645386,-0.05476272851228714,0.9383902549743652,-1.3746532201766968,0.06612951308488846,0.9009303450584412,-1.4136985540390015
1105,0.07793436199426651,0.8197944164276123,-1.5672457218170166,-0.07345328480005264,0.8136783242225647,-1.555053949356079,0.06340114772319794,0.9947985410690308,-1.5447999238967896,-0.0712127536535263,0.9815369844436646,-1.5463340282440186,-0.01598244160413742,0.8313954472541809,-1.3386276960372925,0.059778161346912384,0.8501399755477905,-1.2978515625,-0.08829664438962936,0.9574639797210693,-1.3446691036224365,0.04772672802209854,0.9052426218986511,-1.3874212503433228
1106,0.07920601963996887,0.8211871385574341,-1.5673668384552002,-0.07302939891815186,0.8136177659034729,-1.555134654045105,0.06182671710848808,0.9964334964752197,-1.5441540479660034,-0.07321106642484665,0.9810525178909302,-1.5460110902786255,-0.017046920955181122,0.8018289804458618,-1.3252094984054565,0.05275570601224899,0.8493822813034058,-1.3061963319778442,-0.07393705099821091,0.9329150915145874,-1.3287179470062256,0.062389619648456573,0.9118024706840515,-1.400117039680481
1107,0.07944823801517487,0.8202788233757019,-1.5673264265060425,-0.07387717068195343,0.8137994408607483,-1.5554980039596558,0.06255337595939636,0.9954646229743958,-1.5441943407058716,-0.07442216575145721,0.9821425080299377,-1.546535849571228,-0.023906029760837555,0.8046565651893616,-1.345421314239502,0.058789826929569244,0.8479009866714478,-1.3108993768692017,-0.06765780597925186,0.938716471195221,-1.3430203199386597,0.06496784836053848,0.908534824848175,-1.3925832509994507
1108,0.07932712882757187,0.8201577067375183,-1.567528247833252,-0.07284773886203766,0.8128911256790161,-1.5554980039596558,0.06255337595939636,0.995404064655304,-1.5442347526550293,-0.07417994737625122,0.9807497262954712,-1.5464147329330444,-0.021859504282474518,0.801149845123291,-1.3472756147384644,0.0603039488196373,0.843048095703125,-1.3142338991165161,-0.07367231696844101,0.9349589943885803,-1.3437224626541138,0.05542435497045517,0.9036394953727722,-1.3947205543518066
1109,0.07920601963996887,0.8192493915557861,-1.567447543144226,-0.07193940877914429,0.8117405772209167,-1.5554980039596558,0.062129490077495575,0.9943140745162964,-1.544073224067688,-0.07363495230674744,0.9793570041656494,-1.5462936162948608,-0.025723136961460114,0.8022826313972473,-1.3493835926055908,0.05849463492631912,0.8399577736854553,-1.31363844871521,-0.07162880152463913,0.9346591234207153,-1.3450696468353271,0.056539662182331085,0.9041637778282166,-1.3926678895950317
1110,0.0784793570637703,0.819007158279419,-1.5674879550933838,-0.07193940877914429,0.8115589022636414,-1.5554980039596558,0.061766162514686584,0.9938901662826538,-1.5439118146896362,-0.07363495230674744,0.9792964458465576,-1.546212911605835,-0.0282435342669487,0.8052067160606384,-1.3488764762878418,0.05861344188451767,0.8401006460189819,-1.3166923522949219,-0.074026919901371,0.9351471066474915,-1.3382703065872192,0.05548807233572006,0.9030747413635254,-1.386918544769287
1111,0.07872157543897629,0.8192493915557861,-1.567528247833252,-0.07212107628583908,0.8118011355400085,-1.5555384159088135,0.06194782629609108,0.9940112829208374,-1.5439118146896362,-0.07369551062583923,0.9794175028800964,-1.5461724996566772,-0.027329765260219574,0.8097005486488342,-1.3493552207946777,0.06133187562227249,0.8417904376983643,-1.319409966468811,-0.07543154805898666,0.9382308721542358,-1.3344049453735352,0.05338001996278763,0.9019324779510498,-1.3804079294204712
1112,0.07884268462657928,0.8194310665130615,-1.5675686597824097,-0.07242385298013687,0.8120433688163757,-1.555659532546997,0.06219004467129707,0.9939507246017456,-1.5439118146896362,-0.07393772900104523,0.97953861951828,-1.5461724996566772,-0.029297687113285065,0.8064292669296265,-1.3488962650299072,0.0609949454665184,0.8444244861602783,-1.3232749700546265,-0.07407962530851364,0.9363418817520142,-1.3304002285003662,0.054673679172992706,0.9021216630935669,-1.3807668685913086
1113,0.07853991538286209,0.8191888332366943,-1.5675686597824097,-0.07236329466104507,0.8120433688163757,-1.5556998252868652,0.06225059926509857,0.993769109249115,-1.5437906980514526,-0.07381661981344223,0.97953861951828,-1.5461724996566772,-0.03091076761484146,0.8043299317359924,-1.349969506263733,0.06147269159555435,0.8446319699287415,-1.3266174793243408,-0.07307953387498856,0.9348524212837219,-1.3294426202774048,0.05380883067846298,0.9004567861557007,-1.3799834251403809
1114,0.07799491286277771,0.819007158279419,-1.567528247833252,-0.07218162715435028,0.8119222521781921,-1.555659532546997,0.06206893548369408,0.9935874342918396,-1.543669581413269,-0.07375606149435043,0.9794780611991882,-1.546132206916809,-0.031038634479045868,0.804987907409668,-1.3506983518600464,0.0622720941901207,0.8439010381698608,-1.3287657499313354,-0.07391487807035446,0.9341525435447693,-1.3279871940612793,0.0524224117398262,0.8994225263595581,-1.3787015676498413
1115,0.07775269448757172,0.8189465999603271,-1.5676089525222778,-0.07212107628583908,0.8119222521781921,-1.5556998252868652,0.06188727170228958,0.993466317653656,-1.5432658195495605,-0.07375606149435043,0.9793570041656494,-1.5460917949676514,-0.03275381773710251,0.8053598999977112,-1.3512673377990723,0.06246749311685562,0.8432268500328064,-1.330368995666504,-0.07390136271715164,0.9331476092338562,-1.3254355192184448,0.05224820226430893,0.8990235328674316,-1.3773831129074097
1116,0.07787380367517471,0.8190677165985107,-1.5675686597824097,-0.07236329466104507,0.8119222521781921,-1.555740237236023,0.06188727170228958,0.9934057593345642,-1.5431851148605347,-0.07393772900104523,0.9792964458465576,-1.5460513830184937,-0.03359099477529526,0.805690348148346,-1.3522285223007202,0.06295671314001083,0.8436112999916077,-1.3316800594329834,-0.07434069365262985,0.9329980611801147,-1.3222304582595825,0.05152951925992966,0.8985121250152588,-1.3759312629699707
1117,0.07787380367517471,0.8193099498748779,-1.5676089525222778,-0.07248440384864807,0.8119828104972839,-1.5557805299758911,0.06188727170228958,0.9935268759727478,-1.5431448221206665,-0.07417994737625122,0.9792964458465576,-1.5460513830184937,-0.03380214422941208,0.8065657615661621,-1.353123426437378,0.06363143771886826,0.8444902896881104,-1.3329575061798096,-0.07527858763933182,0.933326780796051,-1.318756341934204,0.05009538680315018,0.8981834053993225,-1.3746033906936646
1118,0.07763158529996872,0.8193099498748779,-1.5676089525222778,-0.07242385298013687,0.8120433688163757,-1.5557805299758911,0.06164504960179329,0.9935268759727478,-1.5429832935333252,-0.07417994737625122,0.9792964458465576,-1.5460110902786255,-0.03454115241765976,0.8061630129814148,-1.3545897006988525,0.0636180117726326,0.8453153967857361,-1.3340039253234863,-0.07506947964429855,0.9328081011772156,-1.315516710281372,0.049505166709423065,0.898262619972229,-1.3746271133422852
1119,0.07726825773715973,0.8193099498748779,-1.5676089525222778,-0.07242385298013687,0.8120433688163757,-1.5557805299758911,0.06152394041419029,0.9932846426963806,-1.5422565937042236,-0.07411938905715942,0.9792964458465576,-1.5459706783294678,-0.03512386232614517,0.8058744072914124,-1.3560253381729126,0.06376830488443375,0.8455535173416138,-1.3348114490509033,-0.07508080452680588,0.9322322010993958,-1.3128254413604736,0.04893022030591965,0.8981786370277405,-1.374682903289795
1120,0.07708659023046494,0.8193099498748779,-1.5676493644714355,-0.07248440384864807,0.8120433688163757,-1.5557805299758911,0.061463385820388794,0.9929212927818298,-1.5415300130844116,-0.07411938905715942,0.9792964458465576,-1.54593026638031,-0.03467599302530289,0.8056897521018982,-1.3568094968795776,0.06417001038789749,0.8452156782150269,-1.3351998329162598,-0.07584088295698166,0.9319905042648315,-1.3115315437316895,0.04764667898416519,0.8975750207901001,-1.3745715618133545
1121,0.07714714854955673,0.8193099498748779,-1.5676493644714355,-0.07254496216773987,0.8121644854545593,-1.5558209419250488,0.061463385820388794,0.9926185607910156,-1.541206955909729,-0.07411938905715942,0.9792358875274658,-1.54593026638031,-0.03487467020750046,0.8060069680213928,-1.357641577720642,0.06464054435491562,0.8450790047645569,-1.3359348773956299,-0.07678432017564774,0.9318059086799622,-1.3096951246261597,0.04657616466283798,0.897223711013794,-1.3740894794464111
1122,0.07714714854955673,0.8193099498748779,-1.5676897764205933,-0.07254496216773987,0.8124066591262817,-1.5558613538742065,0.061463385820388794,0.9924368858337402,-1.5407226085662842,-0.07417994737625122,0.9792964458465576,-1.54593026638031,-0.03520173579454422,0.8060676455497742,-1.3585420846939087,0.06465994566679001,0.8451679348945618,-1.3362849950790405,-0.07737167924642563,0.9313927292823792,-1.3073514699935913,0.04588761180639267,0.8973418474197388,-1.374082088470459
1123,0.07696548104286194,0.8191888332366943,-1.5676897764205933,-0.07254496216773987,0.8124672174453735,-1.5558613538742065,0.061463385820388794,0.9918918609619141,-1.539551854133606,-0.07411938905715942,0.9793570041656494,-1.5459706783294678,-0.036287419497966766,0.8056362867355347,-1.3600904941558838,0.06416463106870651,0.8453527688980103,-1.3358622789382935,-0.0770377442240715,0.9302086234092712,-1.306024432182312,0.045975394546985626,0.8977819681167603,-1.3740829229354858
1124,0.07672326266765594,0.8190677165985107,-1.5676897764205933,-0.07260551303625107,0.8124672174453735,-1.5559016466140747,0.06152394041419029,0.9908018708229065,-1.5386637449264526,-0.07411938905715942,0.9792358875274658,-1.54593026638031,-0.036187030375003815,0.8054460883140564,-1.3607814311981201,0.06439317017793655,0.8450353145599365,-1.3360875844955444,-0.07767147570848465,0.929951012134552,-1.3053312301635742,0.045004673302173615,0.8971565961837769,-1.373764991760254
1125,0.07660215348005295,0.8189465999603271,-1.5676493644714355,-0.07272662967443466,0.8125277757644653,-1.5559420585632324,0.061463385820388794,0.9901963472366333,-1.5375332832336426,-0.07411938905715942,0.9791147708892822,-1.545889973640442,-0.03564319759607315,0.805232048034668,-1.3608306646347046,0.06457757204771042,0.8447184562683105,-1.3364776372909546,-0.07851269096136093,0.9295841455459595,-1.3039805889129639,0.04389188438653946,0.8969684839248657,-1.3741334676742554
1126,0.07635992765426636,0.8188255429267883,-1.5677300691604614,-0.07290828973054886,0.8127700090408325,-1.5559824705123901,0.06152394041419029,0.9895907640457153,-1.536685585975647,-0.07405883818864822,0.979175329208374,-1.5458495616912842,-0.03638239949941635,0.80516117811203,-1.361208200454712,0.06443329900503159,0.8446490168571472,-1.3367036581039429,-0.07868806272745132,0.9289976358413696,-1.3029128313064575,0.043674178421497345,0.8968667984008789,-1.374127984046936
1127,0.07623881846666336,0.8187649846076965,-1.5676897764205933,-0.07302939891815186,0.8130122423171997,-1.5560227632522583,0.06158449500799179,0.9892274737358093,-1.5361607074737549,-0.07387717068195343,0.9792358875274658,-1.5458495616912842,-0.036311544477939606,0.8049825429916382,-1.36153244972229,0.06458867341279984,0.8447478413581848,-1.3371690511703491,-0.07911517471075058,0.928696870803833,-1.3021740913391113,0.04319237917661667,0.8965308666229248,-1.3739612102508545
1128,0.07605715095996857,0.8187044262886047,-1.5676897764205933,-0.07321106642484665,0.8131939172744751,-1.5561035871505737,0.06158449500799179,0.9888641238212585,-1.535474419593811,-0.07381661981344223,0.9792964458465576,-1.5458091497421265,-0.036657385528087616,0.8047374486923218,-1.361681580543518,0.06427998095750809,0.84501713514328,-1.3372530937194824,-0.07934670895338058,0.9283769130706787,-1.301664113998413,0.042905502021312714,0.8964138627052307,-1.3735727071762085
1129,0.07581493258476257,0.8186438679695129,-1.5676897764205933,-0.07339273393154144,0.8133149743080139,-1.556143879890442,0.06158449500799179,0.9883190989494324,-1.5345863103866577,-0.07387717068195343,0.9793570041656494,-1.5458091497421265,-0.037336237728595734,0.8042851686477661,-1.3616788387298584,0.06403017789125443,0.8452603816986084,-1.337704062461853,-0.07932383567094803,0.9276477098464966,-1.300595760345459,0.04296901077032089,0.8964175581932068,-1.3737303018569946
1130,0.07551215589046478,0.8185833096504211,-1.5676897764205933,-0.07363495230674744,0.8133755326271057,-1.556143879890442,0.06152394041419029,0.987774133682251,-1.5340211391448975,-0.07387717068195343,0.9792964458465576,-1.5456880331039429,-0.03704584389925003,0.8043091893196106,-1.361498236656189,0.06430616229772568,0.8453330993652344,-1.3384861946105957,-0.0797775611281395,0.9276193976402283,-1.2996914386749268,0.04232759028673172,0.8960556387901306,-1.3737760782241821
1131,0.07526993751525879,0.8184621930122375,-1.5676897764205933,-0.07375606149435043,0.8134966492652893,-1.5561842918395996,0.06152394041419029,0.9875924587249756,-1.5337384939193726,-0.07381661981344223,0.9792964458465576,-1.5454862117767334,-0.036748312413692474,0.8042712807655334,-1.3612723350524902,0.06442808359861374,0.8455876111984253,-1.3388562202453613,-0.08007704466581345,0.9275211095809937,-1.2984713315963745,0.04188504070043564,0.8959779143333435,-1.3740736246109009
1132,0.07508827745914459,0.8185227513313293,-1.5676897764205933,-0.07387717068195343,0.8136177659034729,-1.5562247037887573,0.06152394041419029,0.987471342086792,-1.5335770845413208,-0.07381661981344223,0.9792964458465576,-1.5452439785003662,-0.03679496794939041,0.803996205329895,-1.3611631393432617,0.06450644880533218,0.8458787798881531,-1.3394396305084229,-0.08025258034467697,0.9274280667304993,-1.2973822355270386,0.04148174077272415,0.8958477973937988,-1.3746041059494019
1133,0.0750277191400528,0.8185227513313293,-1.5676897764205933,-0.07399827986955643,0.8137388825416565,-1.5561842918395996,0.061463385820388794,0.9872896671295166,-1.5334155559539795,-0.07375606149435043,0.9793570041656494,-1.5450825691223145,-0.03689516335725784,0.8037025332450867,-1.3614294528961182,0.06444167345762253,0.8459937572479248,-1.3394373655319214,-0.08027005940675735,0.9271727800369263,-1.2968257665634155,0.041454218327999115,0.8958118557929993,-1.3748527765274048
1134,0.074846051633358,0.8185227513313293,-1.5677300691604614,-0.07405883818864822,0.8137994408607483,-1.5562247037887573,0.06152394041419029,0.987168550491333,-1.533294439315796,-0.07381661981344223,0.9792964458465576,-1.545001745223999,-0.03716709464788437,0.8038150072097778,-1.3618485927581787,0.06436925381422043,0.8460261821746826,-1.3392912149429321,-0.08054628223180771,0.9270651936531067,-1.296331524848938,0.04122748225927353,0.8958706855773926,-1.3748977184295654
1135,0.0746643915772438,0.8185227513313293,-1.5677300691604614,-0.07411938905715942,0.8137994408607483,-1.5562247037887573,0.06152394041419029,0.987108051776886,-1.5331733226776123,-0.07387717068195343,0.9792964458465576,-1.5449210405349731,-0.03747711330652237,0.8037026524543762,-1.3621844053268433,0.06421620398759842,0.8460335731506348,-1.3392302989959717,-0.08052455633878708,0.9267795085906982,-1.2958695888519287,0.04117221385240555,0.8957255482673645,-1.3750115633010864
1136,0.07454327493906021,0.8185227513313293,-1.5677300691604614,-0.07417994737625122,0.8137994408607483,-1.5562247037887573,0.061402831226587296,0.9869869351387024,-1.5330926179885864,-0.07387717068195343,0.9792358875274658,-1.5448806285858154,-0.03738928586244583,0.8039031624794006,-1.3623296022415161,0.0643044039607048,0.8461634516716003,-1.3395143747329712,-0.08084066957235336,0.9268914461135864,-1.2947769165039062,0.040655605494976044,0.8957844376564026,-1.375361442565918
1137,0.07448272407054901,0.8185227513313293,-1.5677300691604614,-0.07424050569534302,0.8137994408607483,-1.5561842918395996,0.0613422766327858,0.9869263768196106,-1.5329715013504028,-0.07387717068195343,0.9792964458465576,-1.5448403358459473,-0.03736468404531479,0.804310142993927,-1.362867832183838,0.06428820639848709,0.8462374210357666,-1.33943510055542,-0.08111470192670822,0.9271876215934753,-1.2938419580459595,0.04034615308046341,0.8959130048751831,-1.3753458261489868
1138,0.07448272407054901,0.8185227513313293,-1.5676897764205933,-0.07424050569534302,0.8137994408607483,-1.5562649965286255,0.0613422766327858,0.9868658185005188,-1.532890796661377,-0.07387717068195343,0.9792358875274658,-1.5447999238967896,-0.03740245848894119,0.8045592904090881,-1.3631991147994995,0.06427282840013504,0.8466874361038208,-1.3394925594329834,-0.08128411322832108,0.9274483919143677,-1.292747139930725,0.0400531068444252,0.8960608839988708,-1.3752026557922363
1139,0.07442216575145721,0.8184621930122375,-1.5676897764205933,-0.07424050569534302,0.8137994408607483,-1.5562247037887573,0.0613422766327858,0.986805260181427,-1.5327696800231934,-0.07387717068195343,0.9792964458465576,-1.5447999238967896,-0.037640638649463654,0.804290771484375,-1.3634588718414307,0.06389906257390976,0.8473252058029175,-1.339343547821045,-0.0809849426150322,0.9273724555969238,-1.2919549942016602,0.0403217151761055,0.896371066570282,-1.3755548000335693
1140,0.07436161488294601,0.8184016346931458,-1.5677300691604614,-0.07424050569534302,0.8137994408607483,-1.5562247037887573,0.0613422766327858,0.9867447018623352,-1.5326485633850098,-0.07387717068195343,0.9792964458465576,-1.5447595119476318,-0.03739505261182785,0.8043124079704285,-1.363924264907837,0.06413321942090988,0.8470965027809143,-1.3393223285675049,-0.0813155397772789,0.9272799491882324,-1.2916688919067383,0.03984399884939194,0.8963565230369568,-1.3757884502410889
1141,0.07430105656385422,0.818341076374054,-1.5676897764205933,-0.07430105656385422,0.8138599991798401,-1.5562247037887573,0.0613422766327858,0.9866841435432434,-1.5324870347976685,-0.07387717068195343,0.9792358875274658,-1.5447595119476318,-0.03696727007627487,0.8043408989906311,-1.3642773628234863,0.06429450958967209,0.8467167615890503,-1.3390862941741943,-0.08169742673635483,0.9272989630699158,-1.2915760278701782,0.039181970059871674,0.8962763547897339,-1.3761863708496094
1142,0.07430105656385422,0.818341076374054,-1.5677300691604614,-0.07430105656385422,0.8138599991798401,-1.5562247037887573,0.0613422766327858,0.986502468585968,-1.532285213470459,-0.07387717068195343,0.9792964458465576,-1.5447595119476318,-0.03782717138528824,0.804167628288269,-1.3646241426467896,0.06372024863958359,0.847047746181488,-1.3388875722885132,-0.08144747465848923,0.9270860552787781,-1.2909433841705322,0.03960833698511124,0.8966455459594727,-1.3763325214385986
1143,0.07424050569534302,0.818341076374054,-1.5677300691604614,-0.07424050569534302,0.8138599991798401,-1.5562247037887573,0.0613422766327858,0.9863813519477844,-1.5321238040924072,-0.07387717068195343,0.9792964458465576,-1.5447999238967896,-0.03775400668382645,0.8045158982276917,-1.365013837814331,0.06394324451684952,0.847121000289917,-1.3389215469360352,-0.08169301599264145,0.9273015856742859,-1.2907023429870605,0.03941138833761215,0.8965680599212646,-1.3760014772415161
1144,0.07424050569534302,0.818341076374054,-1.5677300691604614,-0.07430105656385422,0.8139205574989319,-1.5562649965286255,0.061281718313694,0.9863207936286926,-1.53188157081604,-0.07387717068195343,0.9792358875274658,-1.5447595119476318,-0.03709592670202255,0.8046478629112244,-1.364827036857605,0.06417591124773026,0.8470203280448914,-1.3389681577682495,-0.08213277906179428,0.9274784922599792,-1.28980553150177,0.038729362189769745,0.896567702293396,-1.3764228820800781
1145,0.07417994737625122,0.818341076374054,-1.5676897764205933,-0.07436161488294601,0.8139811158180237,-1.5562649965286255,0.061281718313694,0.9863207936286926,-1.5318007469177246,-0.07387717068195343,0.9792964458465576,-1.5447595119476318,-0.03733321279287338,0.8041594624519348,-1.3645950555801392,0.06385452300310135,0.8472352623939514,-1.339037299156189,-0.08176793903112411,0.9272792339324951,-1.289536476135254,0.0389445498585701,0.8966915607452393,-1.377013921737671
1146,0.07417994737625122,0.818341076374054,-1.5677300691604614,-0.07436161488294601,0.8140416741371155,-1.5562649965286255,0.061281718313694,0.9862602353096008,-1.5317200422286987,-0.07381661981344223,0.9792964458465576,-1.5447192192077637,-0.03729238361120224,0.8043750524520874,-1.365013837814331,0.06394562870264053,0.847204327583313,-1.3389883041381836,-0.08205672353506088,0.9274669885635376,-1.2897757291793823,0.0386812761425972,0.8965447545051575,-1.3767738342285156
1147,0.07411938905715942,0.8182805180549622,-1.5677300691604614,-0.07442216575145721,0.8140416741371155,-1.5562649965286255,0.061281718313694,0.9862602353096008,-1.5316393375396729,-0.07387717068195343,0.9792964458465576,-1.5447595119476318,-0.03695697337388992,0.80430668592453,-1.3649710416793823,0.06398282200098038,0.8472910523414612,-1.3389943838119507,-0.08231549710035324,0.9274438619613647,-1.2892558574676514,0.038325704634189606,0.8966628909111023,-1.3770369291305542
1148,0.07417994737625122,0.818341076374054,-1.5677300691604614,-0.07442216575145721,0.8141022324562073,-1.5562649965286255,0.0612211637198925,0.9862602353096008,-1.5315989255905151,-0.07387717068195343,0.9792964458465576,-1.5447192192077637,-0.03663750737905502,0.8043884038925171,-1.3648059368133545,0.06414314359426498,0.8473255634307861,-1.3392245769500732,-0.08256923407316208,0.9276971817016602,-1.288627028465271,0.038046278059482574,0.8967527151107788,-1.3775017261505127
1149,0.07417994737625122,0.818341076374054,-1.5677300691604614,-0.07442216575145721,0.8141627907752991,-1.5562649965286255,0.0612211637198925,0.9863207936286926,-1.5315182209014893,-0.07387717068195343,0.9792964458465576,-1.5447595119476318,-0.036507777869701385,0.8044098019599915,-1.3647938966751099,0.0640818253159523,0.8472884893417358,-1.338748574256897,-0.08262010663747787,0.9277068376541138,-1.2886518239974976,0.038021959364414215,0.8969387412071228,-1.377903938293457
1150,0.07411938905715942,0.818341076374054,-1.5677300691604614,-0.07442216575145721,0.8141627907752991,-1.5562649965286255,0.0612211637198925,0.9862602353096008,-1.5314778089523315,-0.07387717068195343,0.9792964458465576,-1.5447192192077637,-0.036973170936107635,0.8040453195571899,-1.3651561737060547,0.063988097012043,0.8474425077438354,-1.3387541770935059,-0.08232428878545761,0.9273953437805176,-1.2882980108261108,0.038218431174755096,0.8969962000846863,-1.3782631158828735
1151,0.07411938905715942,0.818341076374054,-1.5677300691604614,-0.07448272407054901,0.8141627907752991,-1.5562649965286255,0.061160609126091,0.9862602353096008,-1.5314373970031738,-0.07387717068195343,0.9792964458465576,-1.5447192192077637,-0.03608716279268265,0.8041269779205322,-1.3650071620941162,0.0643402710556984,0.8473997116088867,-1.338832974433899,-0.08268431574106216,0.927691638469696,-1.2878162860870361,0.03761068731546402,0.8969132304191589,-1.378660798072815
1152,0.07405883818864822,0.8184016346931458,-1.5677300691604614,-0.07442216575145721,0.8141627907752991,-1.5562649965286255,0.061160609126091,0.986199676990509,-1.5314373970031738,-0.07387717068195343,0.9792964458465576,-1.5447192192077637,-0.03584717959165573,0.8039543032646179,-1.3648279905319214,0.06434480100870132,0.8472634553909302,-1.3388344049453735,-0.08281748741865158,0.9277648329734802,-1.2881197929382324,0.03737343102693558,0.8968100547790527,-1.379089593887329
1153,0.07405883818864822,0.818341076374054,-1.5677300691604614,-0.07442216575145721,0.8141627907752991,-1.5563054084777832,0.061160609126091,0.9862602353096008,-1.5313971042633057,-0.07387717068195343,0.9792964458465576,-1.544678807258606,-0.03622869402170181,0.8037235140800476,-1.365011215209961,0.06412192434072495,0.8471725583076477,-1.3384308815002441,-0.08251381665468216,0.9273529052734375,-1.288119912147522,0.03776820749044418,0.8969053626060486,-1.3793891668319702
1154,0.07405883818864822,0.818341076374054,-1.5677300691604614,-0.07448272407054901,0.8141627907752991,-1.5563054084777832,0.061100054532289505,0.986199676990509,-1.531356692314148,-0.07381661981344223,0.9792964458465576,-1.5447192192077637,-0.03631170839071274,0.8037192225456238,-1.3649699687957764,0.06391087919473648,0.847255527973175,-1.3380879163742065,-0.08243127912282944,0.927308201789856,-1.2884933948516846,0.037860698997974396,0.8969632983207703,-1.3792208433151245
1155,0.07405883818864822,0.818341076374054,-1.5677300691604614,-0.07442216575145721,0.8141627907752991,-1.5562649965286255,0.061100054532289505,0.9861391186714172,-1.531356692314148,-0.07387717068195343,0.9792964458465576,-1.544678807258606,-0.03631117194890976,0.803881049156189,-1.3652125597000122,0.06388617306947708,0.8470107316970825,-1.3380579948425293,-0.08279680460691452,0.9273425936698914,-1.288852572441101,0.03768477588891983,0.8968611359596252,-1.379089593887329
1156,0.07405883818864822,0.818341076374054,-1.5677300691604614,-0.07442216575145721,0.8141627907752991,-1.5562649965286255,0.061160609126091,0.9861391186714172,-1.531356692314148,-0.07387717068195343,0.9792964458465576,-1.5447192192077637,-0.037043072283267975,0.8037782907485962,-1.3656729459762573,0.06345938891172409,0.8471161127090454,-1.3375394344329834,-0.08230548352003098,0.9270519018173218,-1.2891076803207397,0.03829125314950943,0.8971245288848877,-1.3788740634918213
1157,0.07405883818864822,0.818341076374054,-1.5677300691604614,-0.07448272407054901,0.8141627907752991,-1.5562649965286255,0.061160609126091,0.9861391186714172,-1.531356692314148,-0.07387717068195343,0.9792964458465576,-1.5447192192077637,-0.03627977520227432,0.8040727972984314,-1.3653301000595093,0.06375715881586075,0.8468791246414185,-1.3375561237335205,-0.08305992931127548,0.9275644421577454,-1.28872811794281,0.03760068863630295,0.8970346450805664,-1.3788607120513916
1158,0.07399827986955643,0.818341076374054,-1.5677704811096191,-0.07442216575145721,0.8141627907752991,-1.5562649965286255,0.061100054532289505,0.9860785603523254,-1.5313163995742798,-0.07387717068195343,0.9792964458465576,-1.544678807258606,-0.03633730858564377,0.8040176630020142,-1.3653790950775146,0.06369365006685257,0.846941351890564,-1.3376743793487549,-0.08289509266614914,0.9274669885635376,-1.28876531124115,0.037570394575595856,0.89702969789505,-1.3790532350540161
1159,0.07399827986955643,0.8184016346931458,-1.5677300691604614,-0.07442216575145721,0.8142233490943909,-1.5563054084777832,0.061100054532289505,0.9861391186714172,-1.531275987625122,-0.07387717068195343,0.9792964458465576,-1.5447192192077637,-0.036427415907382965,0.8039477467536926,-1.365435004234314,0.06369969993829727,0.8469926118850708,-1.3375955820083618,-0.08279263228178024,0.9274211525917053,-1.288889765739441,0.03774615377187729,0.8971784114837646,-1.3791190385818481
1160,0.07399827986955643,0.818341076374054,-1.5677300691604614,-0.07448272407054901,0.8142233490943909,-1.5563054084777832,0.061100054532289505,0.9860785603523254,-1.5313163995742798,-0.07387717068195343,0.9792964458465576,-1.5447192192077637,-0.03661193698644638,0.8035143613815308,-1.3653329610824585,0.06339842826128006,0.8470267653465271,-1.3373852968215942,-0.0823991671204567,0.9271818995475769,-1.2892193794250488,0.038056932389736176,0.897146463394165,-1.3792109489440918
1161,0.07399827986955643,0.818341076374054,-1.5677300691604614,-0.07448272407054901,0.8141627907752991,-1.5562649965286255,0.06103949993848801,0.9860785603523254,-1.5313163995742798,-0.07387717068195343,0.9792964458465576,-1.544678807258606,-0.03609900921583176,0.8037990927696228,-1.365402340888977,0.06375738233327866,0.8467142581939697,-1.3376421928405762,-0.08304693549871445,0.9274196028709412,-1.2896109819412231,0.03737471252679825,0.8968309760093689,-1.379088282585144
1162,0.07399827986955643,0.818341076374054,-1.5677300691604614,-0.07442216575145721,0.8141627907752991,-1.5562649965286255,0.06103949993848801,0.9860785603523254,-1.5313163995742798,-0.07387717068195343,0.9792964458465576,-1.5447192192077637,-0.03612577170133591,0.803899347782135,-1.365156650543213,0.06367406994104385,0.8467682003974915,-1.337797999382019,-0.08312641829252243,0.9274069666862488,-1.2894163131713867,0.03735930472612381,0.8969135880470276,-1.3789844512939453
1163,0.07393772900104523,0.8184016346931458,-1.5677300691604614,-0.07448272407054901,0.8141627907752991,-1.5562649965286255,0.06103949993848801,0.9861391186714172,-1.531275987625122,-0.07387717068195343,0.9792964458465576,-1.5447192192077637,-0.03623119741678238,0.8039710521697998,-1.365037441253662,0.06373541802167892,0.8469045162200928,-1.3379579782485962,-0.08302868157625198,0.9274439811706543,-1.2889750003814697,0.037535570561885834,0.8971632122993469,-1.3793485164642334
1164,0.07393772900104523,0.818341076374054,-1.5677300691604614,-0.07448272407054901,0.8142233490943909,-1.5562649965286255,0.06103949993848801,0.9860785603523254,-1.531275987625122,-0.07387717068195343,0.9792964458465576,-1.5447192192077637,-0.03617563098669052,0.8038533329963684,-1.3648707866668701,0.06375221163034439,0.8469350934028625,-1.3379559516906738,-0.08293192833662033,0.9275393486022949,-1.2892141342163086,0.03756848722696304,0.8970244526863098,-1.3793458938598633
1165,0.07393772900104523,0.8184016346931458,-1.5677300691604614,-0.07448272407054901,0.8141627907752991,-1.5562649965286255,0.06097894534468651,0.9860785603523254,-1.531275987625122,-0.07387717068195343,0.9792964458465576,-1.5447192192077637,-0.03648745268583298,0.8037880063056946,-1.364788293838501,0.06363172084093094,0.8471134305000305,-1.3379570245742798,-0.08280327171087265,0.9274758100509644,-1.289133071899414,0.037814684212207794,0.8970768451690674,-1.3793580532073975
1166,0.07393772900104523,0.818341076374054,-1.5677300691604614,-0.07442216575145721,0.8142233490943909,-1.5562649965286255,0.06097894534468651,0.9860785603523254,-1.5312355756759644,-0.07393772900104523,0.9792964458465576,-1.544678807258606,-0.036566875874996185,0.8039427399635315,-1.365211844444275,0.06358367949724197,0.8468523025512695,-1.337593674659729,-0.08279591053724289,0.9272790551185608,-1.28941011428833,0.037767134606838226,0.896996021270752,-1.379027009010315
1167,0.07393772900104523,0.818341076374054,-1.5677704811096191,-0.07442216575145721,0.8141627907752991,-1.5562649965286255,0.06103949993848801,0.9860785603523254,-1.5312355756759644,-0.07387717068195343,0.9792964458465576,-1.5447192192077637,-0.03674062341451645,0.8042049407958984,-1.3651564121246338,0.06342308968305588,0.8468137383460999,-1.3372517824172974,-0.08291991800069809,0.9273523092269897,-1.2895132303237915,0.03788093477487564,0.8971748948097229,-1.3788952827453613
1168,0.07393772900104523,0.8184016346931458,-1.5677704811096191,-0.07442216575145721,0.8142233490943909,-1.5562649965286255,0.06097894534468651,0.9861391186714172,-1.531275987625122,-0.07387717068195343,0.9792964458465576,-1.5447192192077637,-0.03618115931749344,0.8043095469474792,-1.3650493621826172,0.0636771097779274,0.8467146158218384,-1.3374693393707275,-0.08323623985052109,0.9275777339935303,-1.2895578145980835,0.037487588822841644,0.897040843963623,-1.3791545629501343
1169,0.07393772900104523,0.818341076374054,-1.5677300691604614,-0.07448272407054901,0.8142233490943909,-1.5563054084777832,0.06097894534468651,0.9860785603523254,-1.531275987625122,-0.07387717068195343,0.9792964458465576,-1.544678807258606,-0.03597692400217056,0.8040961027145386,-1.3648873567581177,0.0637885108590126,0.8469045162200928,-1.3377983570098877,-0.08326137810945511,0.9277158379554749,-1.2889463901519775,0.03721632808446884,0.8970168828964233,-1.3793518543243408
1170,0.07393772900104523,0.818341076374054,-1.5677300691604614,-0.07442216575145721,0.8142233490943909,-1.5563054084777832,0.06097894534468651,0.9861391186714172,-1.5312355756759644,-0.07387717068195343,0.9792964458465576,-1.544678807258606,-0.03616044670343399,0.8039761781692505,-1.3649554252624512,0.06379557400941849,0.8472732305526733,-1.3377442359924316,-0.08290327340364456,0.9276323318481445,-1.2884222269058228,0.03760702162981033,0.8972592949867249,-1.3795171976089478
1171,0.07393772900104523,0.818341076374054,-1.5677704811096191,-0.07442216575145721,0.8142233490943909,-1.5562649965286255,0.06091839075088501,0.9860785603523254,-1.5312355756759644,-0.07393772900104523,0.9792964458465576,-1.544678807258606,-0.035809822380542755,0.8039939403533936,-1.3649773597717285,0.06383118778467178,0.8472354412078857,-1.3377870321273804,-0.08291663974523544,0.9277869462966919,-1.2881898880004883,0.037335656583309174,0.8972657322883606,-1.3797246217727661
1172,0.07393772900104523,0.818341076374054,-1.5677300691604614,-0.07448272407054901,0.8141627907752991,-1.5562649965286255,0.06091839075088501,0.9861391186714172,-1.5311952829360962,-0.07387717068195343,0.9792964458465576,-1.544678807258606,-0.03618154674768448,0.8035700917243958,-1.365160584449768,0.06354530900716782,0.8476418852806091,-1.3376401662826538,-0.08238568156957626,0.9274353384971619,-1.28816556930542,0.037874482572078705,0.897473931312561,-1.3802211284637451
1173,0.07393772900104523,0.818341076374054,-1.5677300691604614,-0.07448272407054901,0.8142233490943909,-1.5563054084777832,0.06091839075088501,0.9860785603523254,-1.5312355756759644,-0.07387717068195343,0.9792964458465576,-1.544678807258606,-0.03592626005411148,0.8040109872817993,-1.3649742603302002,0.06367041915655136,0.8474358320236206,-1.3377580642700195,-0.08285174518823624,0.9279205799102783,-1.2881782054901123,0.03748909384012222,0.8971548080444336,-1.3797491788864136
1174,0.07393772900104523,0.8184016346931458,-1.5677300691604614,-0.07442216575145721,0.8142233490943909,-1.5562649965286255,0.06091839075088501,0.9860785603523254,-1.5311952829360962,-0.07387717068195343,0.9792964458465576,-1.5447192192077637,-0.036237604916095734,0.8040198087692261,-1.3650020360946655,0.06351219862699509,0.8474612236022949,-1.337494134902954,-0.08264695852994919,0.9277766346931458,-1.288446307182312,0.037997640669345856,0.89738529920578,-1.3798435926437378
1175,0.07387717068195343,0.8184016346931458,-1.5677704811096191,-0.07442216575145721,0.8142233490943909,-1.5562649965286255,0.06091839075088501,0.9860785603523254,-1.5311952829360962,-0.07387717068195343,0.9792964458465576,-1.544678807258606,-0.035995788872241974,0.8038083910942078,-1.3652355670928955,0.06351625174283981,0.846876323223114,-1.3372167348861694,-0.08274485915899277,0.9275649189949036,-1.2890368700027466,0.03770863264799118,0.8972481489181519,-1.3800585269927979
1176,0.07387717068195343,0.818341076374054,-1.5677300691604614,-0.07442216575145721,0.8142233490943909,-1.5562649965286255,0.06091839075088501,0.9860785603523254,-1.5311952829360962,-0.07387717068195343,0.9792964458465576,-1.544678807258606,-0.036124758422374725,0.8034944534301758,-1.36521577835083,0.06355472654104233,0.8468469381332397,-1.3371862173080444,-0.08261289447546005,0.9272586107254028,-1.2892916202545166,0.037869684398174286,0.897171139717102,-1.3801441192626953
1177,0.07381661981344223,0.818341076374054,-1.5677704811096191,-0.07442216575145721,0.8142233490943909,-1.5562649965286255,0.06091839075088501,0.9860785603523254,-1.5311952829360962,-0.07387717068195343,0.9792964458465576,-1.544678807258606,-0.035989515483379364,0.8038051724433899,-1.3653208017349243,0.0635906532406807,0.8466426730155945,-1.3371895551681519,-0.08286552876234055,0.9273639917373657,-1.289459228515625,0.037605009973049164,0.8972110152244568,-1.380141258239746
1178,0.07381661981344223,0.818341076374054,-1.5677704811096191,-0.07442216575145721,0.8141627907752991,-1.5563054084777832,0.06085783615708351,0.9860180616378784,-1.5311952829360962,-0.07387717068195343,0.9792964458465576,-1.5447192192077637,-0.0364900603890419,0.803904116153717,-1.3654612302780151,0.06335998326539993,0.8469658493995667,-1.3371248245239258,-0.08255773037672043,0.9273598790168762,-1.288991928100586,0.037901751697063446,0.8974581956863403,-1.379990816116333
1179,0.07381661981344223,0.818341076374054,-1.5677300691604614,-0.07442216575145721,0.8142233490943909,-1.5563054084777832,0.06085783615708351,0.9860785603523254,-1.5311548709869385,-0.07387717068195343,0.9792964458465576,-1.544678807258606,-0.03607120364904404,0.8041744232177734,-1.3652534484863281,0.06360708922147751,0.8472194671630859,-1.3375910520553589,-0.08271687477827072,0.9277204871177673,-1.2885853052139282,0.03773001581430435,0.8973474502563477,-1.3797523975372314
1180,0.07381661981344223,0.818341076374054,-1.5677300691604614,-0.07442216575145721,0.8142233490943909,-1.5562649965286255,0.06085783615708351,0.9860180616378784,-1.5311548709869385,-0.07393772900104523,0.9792964458465576,-1.544678807258606,-0.03612206131219864,0.8041410446166992,-1.3650540113449097,0.06358026713132858,0.8473419547080994,-1.3376418352127075,-0.08263436704874039,0.9278965592384338,-1.2885576486587524,0.03784089535474777,0.8973466157913208,-1.3798017501831055
1181,0.07381661981344223,0.8184016346931458,-1.5677704811096191,-0.07442216575145721,0.8142233490943909,-1.5562649965286255,0.06085783615708351,0.9860785603523254,-1.5311548709869385,-0.07393772900104523,0.9792964458465576,-1.544678807258606,-0.035840265452861786,0.8042856454849243,-1.3648601770401,0.06376641243696213,0.8471348285675049,-1.3377091884613037,-0.08293592184782028,0.9278730154037476,-1.2883992195129395,0.037668682634830475,0.8973989486694336,-1.380012035369873
1182,0.07381661981344223,0.8184016346931458,-1.5677300691604614,-0.07442216575145721,0.8142233490943909,-1.5562649965286255,0.06091839075088501,0.9860180616378784,-1.5311548709869385,-0.07387717068195343,0.9792964458465576,-1.544678807258606,-0.036052994430065155,0.804044783115387,-1.3651533126831055,0.06376142054796219,0.8471628427505493,-1.3375760316848755,-0.08276095241308212,0.9277220964431763,-1.2888679504394531,0.037719421088695526,0.8972747325897217,-1.3797496557235718
1183,0.07381661981344223,0.8184016346931458,-1.5677300691604614,-0.07442216575145721,0.8142233490943909,-1.5562649965286255,0.06085783615708351,0.9860180616378784,-1.5311548709869385,-0.07387717068195343,0.9792964458465576,-1.544678807258606,-0.03621765226125717,0.8041160106658936,-1.3650553226470947,0.06373856216669083,0.8470417857170105,-1.3376588821411133,-0.08289860934019089,0.9276996850967407,-1.2891418933868408,0.03775932639837265,0.8971725702285767,-1.379647970199585
1184,0.07387717068195343,0.8184016346931458,-1.5677704811096191,-0.07442216575145721,0.8142233490943909,-1.5563054084777832,0.06085783615708351,0.9860785603523254,-1.5311548709869385,-0.07387717068195343,0.9792964458465576,-1.544678807258606,-0.036496199667453766,0.8042880892753601,-1.3651593923568726,0.06360050290822983,0.8469544053077698,-1.3372400999069214,-0.0827123299241066,0.9276261329650879,-1.2894032001495361,0.037981875240802765,0.897232174873352,-1.3792792558670044
1185,0.07381661981344223,0.8184016346931458,-1.5677300691604614,-0.07442216575145721,0.8142233490943909,-1.5562649965286255,0.06079728156328201,0.9860180616378784,-1.5311548709869385,-0.07393772900104523,0.9792964458465576,-1.544678807258606,-0.036202676594257355,0.804155707359314,-1.3649237155914307,0.06362593919038773,0.8469211459159851,-1.3376492261886597,-0.08303418010473251,0.9276781678199768,-1.2890441417694092,0.03757862001657486,0.8972024321556091,-1.3796247243881226
1186,0.07381661981344223,0.818341076374054,-1.5677704811096191,-0.07442216575145721,0.8142233490943909,-1.5562649965286255,0.06085783615708351,0.9860180616378784,-1.5311548709869385,-0.07387717068195343,0.9792964458465576,-1.544678807258606,-0.03666291385889053,0.804294764995575,-1.3651783466339111,0.06338275223970413,0.8471023440361023,-1.337141752243042,-0.08265040069818497,0.9276866316795349,-1.2895071506500244,0.03818545490503311,0.8973289728164673,-1.37910795211792
1187,0.07375606149435043,0.818341076374054,-1.5677300691604614,-0.07442216575145721,0.8142233490943909,-1.5562649965286255,0.06085783615708351,0.9860180616378784,-1.5311548709869385,-0.07387717068195343,0.9792964458465576,-1.544678807258606,-0.036197446286678314,0.8041820526123047,-1.3649578094482422,0.06351738423109055,0.8469181060791016,-1.3374085426330566,-0.08305918425321579,0.9278524518013,-1.289687156677246,0.03764777630567551,0.897098183631897,-1.379103183746338
1188,0.07381661981344223,0.818341076374054,-1.5677300691604614,-0.07442216575145721,0.8142233490943909,-1.5562649965286255,0.06085783615708351,0.9860180616378784,-1.5311548709869385,-0.07387717068195343,0.9792964458465576,-1.5447192192077637,-0.03628670424222946,0.8040077686309814,-1.3648407459259033,0.06358092278242111,0.8470157384872437,-1.3374483585357666,-0.0828695222735405,0.927691638469696,-1.289633870124817,0.037901587784290314,0.89719158411026,-1.3792685270309448
1189,0.07375606149435043,0.8184016346931458,-1.5677300691604614,-0.07442216575145721,0.8142233490943909,-1.5562649965286255,0.06079728156328201,0.9860180616378784,-1.5311144590377808,-0.07387717068195343,0.9792964458465576,-1.5447192192077637,-0.03671898692846298,0.8040473461151123,-1.365015983581543,0.06342069059610367,0.8472421169281006,-1.3377010822296143,-0.08259902149438858,0.9275611639022827,-1.2892735004425049,0.03816855698823929,0.8974612951278687,-1.37937593460083
1190,0.07375606149435043,0.818341076374054,-1.5677300691604614,-0.07442216575145721,0.8142233490943909,-1.5562649965286255,0.06079728156328201,0.9860180616378784,-1.5311548709869385,-0.07387717068195343,0.9792964458465576,-1.544678807258606,-0.036622948944568634,0.8042269349098206,-1.3651411533355713,0.0635424330830574,0.8470630049705505,-1.337577223777771,-0.08265607804059982,0.927657425403595,-1.2894606590270996,0.0380491241812706,0.8971952795982361,-1.3790329694747925
1191,0.07375606149435043,0.818341076374054,-1.5677300691604614,-0.07442216575145721,0.8142233490943909,-1.5562649965286255,0.06079728156328201,0.9860785603523254,-1.5311144590377808,-0.07387717068195343,0.9792358875274658,-1.544678807258606,-0.035974182188510895,0.8041818737983704,-1.3649744987487793,0.06365812569856644,0.8469419479370117,-1.3375431299209595,-0.08305525034666061,0.9276701211929321,-1.28938889503479,0.03753861039876938,0.8972774744033813,-1.379274606704712
1192,0.07375606149435043,0.818341076374054,-1.5677300691604614,-0.07442216575145721,0.8142233490943909,-1.5562649965286255,0.06079728156328201,0.9860180616378784,-1.5311144590377808,-0.07387717068195343,0.9792964458465576,-1.5447192192077637,-0.036396391689777374,0.8040520548820496,-1.365067481994629,0.06349851936101913,0.8468849658966064,-1.3373264074325562,-0.0828537568449974,0.9274877309799194,-1.2896273136138916,0.037793852388858795,0.8973783850669861,-1.379408597946167
1193,0.07375606149435043,0.8184016346931458,-1.5677300691604614,-0.07442216575145721,0.8142233490943909,-1.5562649965286255,0.06079728156328201,0.9860180616378784,-1.5311144590377808,-0.07387717068195343,0.9792964458465576,-1.544678807258606,-0.036308653652668,0.8039276003837585,-1.3652548789978027,0.063536636531353,0.8468734622001648,-1.3372758626937866,-0.08295359462499619,0.9274559020996094,-1.2897617816925049,0.0377858504652977,0.8973142504692078,-1.3795108795166016
1194,0.07375606149435043,0.8184016346931458,-1.5677300691604614,-0.07442216575145721,0.8142839074134827,-1.5563054084777832,0.06079728156328201,0.9860785603523254,-1.5311144590377808,-0.07387717068195343,0.9792964458465576,-1.5447192192077637,-0.03639201074838638,0.8040493726730347,-1.3650966882705688,0.06357898563146591,0.8467923402786255,-1.3371676206588745,-0.0829666331410408,0.9275587201118469,-1.2900224924087524,0.03777230530977249,0.8971818685531616,-1.379117488861084
1195,0.07375606149435043,0.818341076374054,-1.5677300691604614,-0.07442216575145721,0.8142233490943909,-1.5562649965286255,0.06079728156328201,0.9860180616378784,-1.5311144590377808,-0.07387717068195343,0.9792964458465576,-1.5447192192077637,-0.03659527748823166,0.8040484189987183,-1.3649812936782837,0.06354091316461563,0.8469064235687256,-1.337407112121582,-0.08305936306715012,0.9274722337722778,-1.2898516654968262,0.03784961253404617,0.8971737623214722,-1.3789876699447632
1196,0.07375606149435043,0.818341076374054,-1.5677300691604614,-0.07448272407054901,0.8142233490943909,-1.5562649965286255,0.060736723244190216,0.9860180616378784,-1.5311144590377808,-0.07387717068195343,0.9792964458465576,-1.544678807258606,-0.03610936552286148,0.8041161298751831,-1.3647642135620117,0.06365504115819931,0.8469119071960449,-1.3376851081848145,-0.08318131417036057,0.9276874661445618,-1.2896701097488403,0.037436626851558685,0.8970562815666199,-1.3790371417999268
1197,0.07375606149435043,0.818341076374054,-1.5677300691604614,-0.07448272407054901,0.8142839074134827,-1.5563054084777832,0.060736723244190216,0.9860180616378784,-1.5311144590377808,-0.07381661981344223,0.9792964458465576,-1.544678807258606,-0.03651183098554611,0.8039506673812866,-1.3645557165145874,0.06322657316923141,0.8473134636878967,-1.3375037908554077,-0.08267169445753098,0.9277325868606567,-1.2894585132598877,0.03798600286245346,0.8972784876823425,-1.3792263269424438
1198,0.07369551062583923,0.818341076374054,-1.5677300691604614,-0.07442216575145721,0.8142839074134827,-1.5562649965286255,0.060736723244190216,0.9860180616378784,-1.5311144590377808,-0.07387717068195343,0.9792964458465576,-1.544678807258606,-0.03610440343618393,0.8040207028388977,-1.3644359111785889,0.06351905316114426,0.8472196459770203,-1.33783757686615,-0.08296328037977219,0.9278157949447632,-1.2895268201828003,0.03778468817472458,0.8972023129463196,-1.379499912261963
1199,0.07375606149435043,0.818341076374054,-1.5677300691604614,-0.07442216575145721,0.8142839074134827,-1.5562649965286255,0.060736723244190216,0.9860180616378784,-1.5311144590377808,-0.07387717068195343,0.9792964458465576,-1.544678807258606,-0.03599969297647476,0.8040109872817993,-1.3647987842559814,0.0636884793639183,0.8470627665519714,-1.3377145528793335,-0.08285778015851974,0.9276073575019836,-1.2895148992538452,0.037679560482501984,0.8972711563110352,-1.3795515298843384
1200,0.07375606149435043,0.8184016346931458,-1.5677300691604614,-0.07448272407054901,0.8142233490943909,-1.5562649965286255,0.06079728156328201,0.9860180616378784,-1.5311144590377808,-0.07387717068195343,0.9793570041656494,-1.5447192192077637,-0.03647034615278244,0.8041305541992188,-1.3647384643554688,0.06357210129499435,0.847203254699707,-1.3377412557601929,-0.08285831660032272,0.9276479482650757,-1.2898386716842651,0.03798998147249222,0.8972799777984619,-1.37909734249115
1201,0.07369551062583923,0.818341076374054,-1.5677300691604614,-0.07442216575145721,0.8142233490943909,-1.5562649965286255,0.060736723244190216,0.9860180616378784,-1.5311144590377808,-0.07387717068195343,0.9792964458465576,-1.544678807258606,-0.03640233725309372,0.8041064143180847,-1.364720344543457,0.06362200528383255,0.8470460176467896,-1.337862491607666,-0.08293475955724716,0.9275892376899719,-1.2896863222122192,0.03776214271783829,0.8971204161643982,-1.379180908203125
1202,0.07375606149435043,0.8184016346931458,-1.5677300691604614,-0.07442216575145721,0.8142233490943909,-1.5562649965286255,0.06067616865038872,0.9860180616378784,-1.5311144590377808,-0.07387717068195343,0.9792964458465576,-1.5447192192077637,-0.036338888108730316,0.804185152053833,-1.3647018671035767,0.06354822963476181,0.847129225730896,-1.3375556468963623,-0.08283611387014389,0.9276251792907715,-1.2894511222839355,0.037850700318813324,0.8973115682601929,-1.3794586658477783
1203,0.07375606149435043,0.8184016346931458,-1.5677704811096191,-0.07442216575145721,0.8142839074134827,-1.5562649965286255,0.060736723244190216,0.9859575033187866,-1.5311144590377808,-0.07387717068195343,0.9792964458465576,-1.544678807258606,-0.03625547140836716,0.8040914535522461,-1.3645684719085693,0.06347646564245224,0.8467546701431274,-1.337507963180542,-0.08295508474111557,0.9277248978614807,-1.2899425029754639,0.0378575399518013,0.8970352411270142,-1.3793514966964722
1204,0.07369551062583923,0.8184016346931458,-1.5677300691604614,-0.07442216575145721,0.8142839074134827,-1.5562649965286255,0.060736723244190216,0.9859575033187866,-1.5311144590377808,-0.07387717068195343,0.9792964458465576,-1.5447192192077637,-0.03670934587717056,0.8039087653160095,-1.3648051023483276,0.06341680139303207,0.846908688545227,-1.3377466201782227,-0.08258723467588425,0.9275520443916321,-1.2900689840316772,0.03818965703248978,0.8970161080360413,-1.3794058561325073
1205,0.07369551062583923,0.8184016346931458,-1.5677300691604614,-0.07442216575145721,0.8142233490943909,-1.5563054084777832,0.060736723244190216,0.9860180616378784,-1.5310741662979126,-0.07387717068195343,0.9792964458465576,-1.5447192192077637,-0.03675297647714615,0.804190456867218,-1.3647167682647705,0.06334898620843887,0.8471077084541321,-1.3375102281570435,-0.08256136626005173,0.9275792837142944,-1.2898362874984741,0.03826058655977249,0.8972225785255432,-1.3790638446807861
1206,0.07369551062583923,0.8184016346931458,-1.5677300691604614,-0.07442216575145721,0.8142839074134827,-1.5562649965286255,0.06067616865038872,0.9860180616378784,-1.5310741662979126,-0.07387717068195343,0.9792964458465576,-1.544678807258606,-0.03611148148775101,0.8040879368782043,-1.364471197128296,0.06361781805753708,0.8467972278594971,-1.3376742601394653,-0.08300682157278061,0.9275768399238586,-1.2898211479187012,0.037712983787059784,0.8970118165016174,-1.3792521953582764
1207,0.07369551062583923,0.8184016346931458,-1.5677300691604614,-0.07442216575145721,0.8142839074134827,-1.5563054084777832,0.060736723244190216,0.9860180616378784,-1.5310741662979126,-0.07387717068195343,0.9793570041656494,-1.544678807258606,-0.036854349076747894,0.8039355278015137,-1.3647044897079468,0.06332076340913773,0.8469251394271851,-1.3375582695007324,-0.08258768171072006,0.9273346662521362,-1.290400743484497,0.0383218452334404,0.897099494934082,-1.378953218460083
1208,0.07369551062583923,0.818341076374054,-1.5677300691604614,-0.07442216575145721,0.8142839074134827,-1.5563054084777832,0.06067616865038872,0.9860180616378784,-1.5310741662979126,-0.07387717068195343,0.9792358875274658,-1.5447192192077637,-0.036557383835315704,0.8040079474449158,-1.364715814590454,0.06340255588293076,0.8470688462257385,-1.3375619649887085,-0.0827060416340828,0.9274112582206726,-1.2901575565338135,0.038079194724559784,0.8971802592277527,-1.3789050579071045
1209,0.07369551062583923,0.818341076374054,-1.5677300691604614,-0.07442216575145721,0.8142839074134827,-1.5563054084777832,0.06067616865038872,0.9860180616378784,-1.5311144590377808,-0.07387717068195343,0.9792964458465576,-1.544678807258606,-0.03620029240846634,0.8038415908813477,-1.3645892143249512,0.06351407617330551,0.8470457792282104,-1.3375840187072754,-0.08283665031194687,0.9274278879165649,-1.2899326086044312,0.03778340667486191,0.8971140384674072,-1.3791217803955078
1210,0.07369551062583923,0.8184016346931458,-1.5677300691604614,-0.07442216575145721,0.8142839074134827,-1.5563054084777832,0.06067616865038872,0.9860180616378784,-1.5310741662979126,-0.07387717068195343,0.9792964458465576,-1.544678807258606,-0.036358438432216644,0.8035910129547119,-1.3645902872085571,0.06346393376588821,0.8469353318214417,-1.3376851081848145,-0.08266913145780563,0.9272898435592651,-1.2900915145874023,0.0380450114607811,0.8970381021499634,-1.3793833255767822
1211,0.07363495230674744,0.818341076374054,-1.5677300691604614,-0.07442216575145721,0.8142233490943909,-1.5562649965286255,0.06067616865038872,0.9860180616378784,-1.5310741662979126,-0.07381661981344223,0.9792964458465576,-1.544678807258606,-0.03670492023229599,0.8034111857414246,-1.3648333549499512,0.06330718845129013,0.8469597101211548,-1.3376433849334717,-0.08236955851316452,0.927054762840271,-1.2905627489089966,0.03828296810388565,0.8970112204551697,-1.3794941902160645
1212,0.07369551062583923,0.818341076374054,-1.5677704811096191,-0.07442216575145721,0.8142839074134827,-1.5562649965286255,0.06067616865038872,0.9859575033187866,-1.5311144590377808,-0.07387717068195343,0.9792964458465576,-1.544678807258606,-0.03636118024587631,0.8038238286972046,-1.364623785018921,0.06355395168066025,0.8468090295791626,-1.3376870155334473,-0.08271168917417526,0.9273385405540466,-1.290070652961731,0.0380280539393425,0.8969144821166992,-1.3792816400527954
1213,0.07369551062583923,0.8184016346931458,-1.5677300691604614,-0.07448272407054901,0.8142839074134827,-1.5563054084777832,0.06067616865038872,0.9859575033187866,-1.5310741662979126,-0.07387717068195343,0.9792964458465576,-1.544678807258606,-0.03612934798002243,0.8040146231651306,-1.3642209768295288,0.06355809420347214,0.8468857407569885,-1.337846040725708,-0.08292508870363235,0.9276121258735657,-1.2897206544876099,0.03790251165628433,0.896972119808197,-1.3793613910675049
1214,0.07363495230674744,0.818341076374054,-1.5677300691604614,-0.07442216575145721,0.8142839074134827,-1.5562649965286255,0.06067616865038872,0.9860180616378784,-1.5310741662979126,-0.07387717068195343,0.9792358875274658,-1.544678807258606,-0.0359802171587944,0.8038113117218018,-1.364426851272583,0.0637006089091301,0.8467743992805481,-1.3377312421798706,-0.08300960808992386,0.9273872375488281,-1.2899855375289917,0.03767479211091995,0.8969123959541321,-1.379571557044983
1215,0.07363495230674744,0.8184016346931458,-1.5677300691604614,-0.07442216575145721,0.8142233490943909,-1.5563054084777832,0.06067616865038872,0.9859575033187866,-1.5310741662979126,-0.07387717068195343,0.9792964458465576,-1.544678807258606,-0.0361325666308403,0.8035663962364197,-1.3642429113388062,0.06369658559560776,0.8470428586006165,-1.337894082069397,-0.08272857218980789,0.9272361397743225,-1.289919137954712,0.03789811581373215,0.89692622423172,-1.3795286417007446
1216,0.07363495230674744,0.8184016346931458,-1.5677704811096191,-0.07442216575145721,0.8142839074134827,-1.5562649965286255,0.06067616865038872,0.9859575033187866,-1.5310741662979126,-0.07387717068195343,0.9792964458465576,-1.544678807258606,-0.03671085089445114,0.8036050796508789,-1.3644816875457764,0.06342127174139023,0.8469804525375366,-1.3377429246902466,-0.08235649019479752,0.9271411299705505,-1.290432095527649,0.038493551313877106,0.8969191312789917,-1.3793175220489502
1217,0.07363495230674744,0.8184016346931458,-1.5677300691604614,-0.07442216575145721,0.8142839074134827,-1.5563054084777832,0.06067616865038872,0.9860180616378784,-1.5310741662979126,-0.07387717068195343,0.9792964458465576,-1.5447192192077637,-0.03700029104948044,0.8040099143981934,-1.3646745681762695,0.06324925273656845,0.8469188809394836,-1.3375438451766968,-0.08244480937719345,0.9273141622543335,-1.2905480861663818,0.038513489067554474,0.897004246711731,-1.3789142370224
1218,0.07363495230674744,0.8184016346931458,-1.5677300691604614,-0.07442216575145721,0.8142839074134827,-1.5562649965286255,0.06067616865038872,0.9860180616378784,-1.5310741662979126,-0.07387717068195343,0.9792964458465576,-1.544678807258606,-0.03659912198781967,0.8043772578239441,-1.364508867263794,0.06353919953107834,0.8467589616775513,-1.3378493785858154,-0.08296642452478409,0.9275065660476685,-1.290393352508545,0.038038529455661774,0.896790087223053,-1.378411054611206
1219,0.07357439398765564,0.8184016346931458,-1.5677300691604614,-0.07442216575145721,0.8142839074134827,-1.5562649965286255,0.06067616865038872,0.9860180616378784,-1.5310741662979126,-0.07381661981344223,0.9792964458465576,-1.544678807258606,-0.03707040101289749,0.804214596748352,-1.3647769689559937,0.06333228200674057,0.8470954895019531,-1.3379297256469727,-0.08266862481832504,0.9272749423980713,-1.29019296169281,0.038347892463207245,0.8970979452133179,-1.3784583806991577
1220,0.07363495230674744,0.8184016346931458,-1.5677704811096191,-0.07448272407054901,0.8142233490943909,-1.5562649965286255,0.06061561405658722,0.9860180616378784,-1.5310741662979126,-0.07387717068195343,0.9792964458465576,-1.544678807258606,-0.03683198243379593,0.8039982914924622,-1.3646466732025146,0.06326919049024582,0.84723299741745,-1.3376719951629639,-0.08253517001867294,0.9273969531059265,-1.2899585962295532,0.038310788571834564,0.8971431255340576,-1.3786790370941162
1221,0.07363495230674744,0.8184016346931458,-1.5677300691604614,-0.07442216575145721,0.8142839074134827,-1.5563054084777832,0.06067616865038872,0.9859575033187866,-1.5310741662979126,-0.07393772900104523,0.9792964458465576,-1.544678807258606,-0.03657513111829758,0.8039955496788025,-1.3644667863845825,0.0634613111615181,0.8471570611000061,-1.3379559516906738,-0.08280239254236221,0.9275763034820557,-1.2897331714630127,0.0380282923579216,0.8969842791557312,-1.3788455724716187
1222,0.07363495230674744,0.8184016346931458,-1.5677300691604614,-0.07442216575145721,0.8142839074134827,-1.5562649965286255,0.06061561405658722,0.9859575033187866,-1.5310337543487549,-0.07387717068195343,0.9792964458465576,-1.544678807258606,-0.036514632403850555,0.8039243817329407,-1.3647105693817139,0.06350647658109665,0.8470116257667542,-1.337844729423523,-0.08269711583852768,0.927422046661377,-1.289821743965149,0.038118161261081696,0.8970270752906799,-1.3790687322616577
1223,0.07363495230674744,0.8184016346931458,-1.5677704811096191,-0.07442216575145721,0.8142839074134827,-1.5563054084777832,0.06061561405658722,0.9860180616378784,-1.5310741662979126,-0.07387717068195343,0.9792964458465576,-1.5447192192077637,-0.03645090013742447,0.8040566444396973,-1.3647806644439697,0.06341811269521713,0.8469166159629822,-1.3374521732330322,-0.08281249552965164,0.9274065494537354,-1.2897640466690063,0.03796590119600296,0.8972461223602295,-1.3790572881698608
1224,0.07363495230674744,0.8184016346931458,-1.5677704811096191,-0.07442216575145721,0.8142839074134827,-1.5562649965286255,0.06061561405658722,0.9860180616378784,-1.5310337543487549,-0.07381661981344223,0.9792964458465576,-1.544678807258606,-0.036459483206272125,0.8039746284484863,-1.3650636672973633,0.06338802725076675,0.8469033241271973,-1.3374123573303223,-0.08277938514947891,0.9272840023040771,-1.2899805307388306,0.03798603266477585,0.897185742855072,-1.3789737224578857
1225,0.07369551062583923,0.8184016346931458,-1.5677704811096191,-0.07442216575145721,0.8142233490943909,-1.5563054084777832,0.06067616865038872,0.9859575033187866,-1.5310337543487549,-0.07387717068195343,0.9792964458465576,-1.544678807258606,-0.036121733486652374,0.8043239712715149,-1.3651286363601685,0.06362297385931015,0.8467962741851807,-1.3374347686767578,-0.08330737799406052,0.9276219606399536,-1.2898035049438477,0.03744261711835861,0.8971639275550842,-1.3787896633148193
1226,0.07363495230674744,0.8184016346931458,-1.5677704811096191,-0.07442216575145721,0.8142839074134827,-1.5562649965286255,0.06067616865038872,0.9860180616378784,-1.5310741662979126,-0.07387717068195343,0.9792964458465576,-1.544678807258606,-0.0365002378821373,0.8040335178375244,-1.3649705648422241,0.06338799744844437,0.846954345703125,-1.3372607231140137,-0.08293559402227402,0.9274671673774719,-1.2899335622787476,0.037992410361766815,0.8972375392913818,-1.3788425922393799
1227,0.07363495230674744,0.8184016346931458,-1.5677704811096191,-0.07442216575145721,0.8142839074134827,-1.5563054084777832,0.06061561405658722,0.9860180616378784,-1.5310741662979126,-0.07381661981344223,0.9792964458465576,-1.544678807258606,-0.03631744533777237,0.8041027188301086,-1.364912748336792,0.06343599408864975,0.8467715382575989,-1.337296485900879,-0.08309891074895859,0.9277018308639526,-1.2903461456298828,0.037748612463474274,0.8969917297363281,-1.3787750005722046
1228,0.07357439398765564,0.8184016346931458,-1.5677704811096191,-0.07442216575145721,0.8142839074134827,-1.5563054084777832,0.06061561405658722,0.9860180616378784,-1.5310337543487549,-0.07387717068195343,0.9792964458465576,-1.544678807258606,-0.036158524453639984,0.8039265275001526,-1.364598274230957,0.06355086714029312,0.8465575575828552,-1.3377031087875366,-0.08333899825811386,0.9274682998657227,-1.2901850938796997,0.03742372244596481,0.8969868421554565,-1.3791621923446655
1229,0.07363495230674744,0.8184016346931458,-1.5677300691604614,-0.07442216575145721,0.8142233490943909,-1.5562649965286255,0.06061561405658722,0.9860180616378784,-1.5310337543487549,-0.07387717068195343,0.9792964458465576,-1.544678807258606,-0.036367423832416534,0.8034981489181519,-1.3646503686904907,0.06366033107042313,0.8467965722084045,-1.337908148765564,-0.08278869837522507,0.9271658658981323,-1.2901921272277832,0.037883929908275604,0.8970029354095459,-1.379339575767517
1230,0.07363495230674744,0.8184016346931458,-1.5677704811096191,-0.07442216575145721,0.8142233490943909,-1.5563054084777832,0.06061561405658722,0.9859575033187866,-1.5310337543487549,-0.07387717068195343,0.9792964458465576,-1.544678807258606,-0.037039078772068024,0.8037830591201782,-1.364597201347351,0.06333457678556442,0.8472381234169006,-1.337860345840454,-0.08246385306119919,0.9272239804267883,-1.289716362953186,0.03835392743349075,0.8971560001373291,-1.379046082496643
1231,0.07357439398765564,0.818341076374054,-1.5677704811096191,-0.07442216575145721,0.8142839074134827,-1.5562649965286255,0.06061561405658722,0.9859575033187866,-1.5310337543487549,-0.07387717068195343,0.9792964458465576,-1.544678807258606,-0.03693116456270218,0.8041285276412964,-1.364544153213501,0.06319742649793625,0.8472012281417847,-1.3377355337142944,-0.08251596242189407,0.9275379180908203,-1.2898833751678467,0.03837602585554123,0.8969722390174866,-1.3787142038345337
1232,0.07357439398765564,0.8184016346931458,-1.5677704811096191,-0.07442216575145721,0.8142839074134827,-1.5563054084777832,0.06055505946278572,0.9859575033187866,-1.5310337543487549,-0.07387717068195343,0.9792964458465576,-1.544678807258606,-0.03653986006975174,0.8044617176055908,-1.3645776510238647,0.06322316080331802,0.8472546935081482,-1.337878942489624,-0.08273830264806747,0.927731990814209,-1.2891570329666138,0.03801450878381729,0.8971898555755615,-1.3789364099502563
1233,0.07357439398765564,0.8184016346931458,-1.5677704811096191,-0.07442216575145721,0.8142233490943909,-1.5562649965286255,0.06061561405658722,0.9860180616378784,-1.5310337543487549,-0.07381661981344223,0.9792964458465576,-1.544678807258606,-0.036371149122714996,0.804436206817627,-1.3646230697631836,0.0634504184126854,0.8471708297729492,-1.3377892971038818,-0.08283097296953201,0.9276933670043945,-1.2896097898483276,0.03796250373125076,0.8971104025840759,-1.3789244890213013
1234,0.07363495230674744,0.8184016346931458,-1.5677300691604614,-0.07442216575145721,0.8142839074134827,-1.5563054084777832,0.06055505946278572,0.9860180616378784,-1.5310337543487549,-0.07381661981344223,0.9792964458465576,-1.544678807258606,-0.03667861968278885,0.803989827632904,-1.3648419380187988,0.06332982331514359,0.847277045249939,-1.33769690990448,-0.08257146924734116,0.9274351000785828,-1.2898173332214355,0.03823249787092209,0.8971684575080872,-1.3789970874786377
1235,0.07357439398765564,0.8184016346931458,-1.5677300691604614,-0.07442216575145721,0.8142839074134827,-1.5562649965286255,0.06061561405658722,0.9860180616378784,-1.5310337543487549,-0.07393772900104523,0.9792358875274658,-1.544678807258606,-0.036489151418209076,0.8039568662643433,-1.3647339344024658,0.063445545732975,0.8470122218132019,-1.337689995765686,-0.08286654204130173,0.9274238348007202,-1.2898638248443604,0.037896640598773956,0.8971318006515503,-1.3792314529418945
1236,0.07357439398765564,0.8184016346931458,-1.5677300691604614,-0.07442216575145721,0.8142839074134827,-1.5563054084777832,0.06055505946278572,0.9859575033187866,-1.5310337543487549,-0.07387717068195343,0.9792964458465576,-1.544678807258606,-0.0366753414273262,0.8037686347961426,-1.3650484085083008,0.06322666257619858,0.8469832539558411,-1.337481141090393,-0.0825820043683052,0.927249014377594,-1.2897292375564575,0.038058944046497345,0.8972135782241821,-1.3793519735336304
1237,0.07357439398765564,0.8184016346931458,-1.5677300691604614,-0.07442216575145721,0.8142839074134827,-1.5562649965286255,0.06055505946278572,0.9860180616378784,-1.5310337543487549,-0.07381661981344223,0.9792964458465576,-1.544678807258606,-0.03672636300325394,0.8039014935493469,-1.3651394844055176,0.06320633739233017,0.8471425771713257,-1.337265968322754,-0.08253999799489975,0.9272918701171875,-1.2899117469787598,0.03821506351232529,0.8973035216331482,-1.3791722059249878
1238,0.07357439398765564,0.8184016346931458,-1.5677300691604614,-0.07442216575145721,0.8143444657325745,-1.5563054084777832,0.06055505946278572,0.9859575033187866,-1.5310337543487549,-0.07387717068195343,0.9792964458465576,-1.544678807258606,-0.03647240251302719,0.8038240671157837,-1.365031123161316,0.06325442343950272,0.8468600511550903,-1.3372524976730347,-0.08274023979902267,0.9273912906646729,-1.2901643514633179,0.037998683750629425,0.8971350789070129,-1.379254937171936
1239,0.07357439398765564,0.8184016346931458,-1.5677300691604614,-0.07442216575145721,0.8142839074134827,-1.5563054084777832,0.06055505946278572,0.9860180616378784,-1.5309933423995972,-0.07387717068195343,0.9792964458465576,-1.544678807258606,-0.03614134341478348,0.8039782643318176,-1.3649166822433472,0.06348735839128494,0.8468931913375854,-1.3374149799346924,-0.08301136642694473,0.927402675151825,-1.289716362953186,0.03769289702177048,0.8972927927970886,-1.3794550895690918
1240,0.07357439398765564,0.8184016346931458,-1.5677704811096191,-0.07442216575145721,0.8142839074134827,-1.5563054084777832,0.06055505946278572,0.9860180616378784,-1.5309933423995972,-0.07387717068195343,0.9792964458465576,-1.544678807258606,-0.03688950091600418,0.8039335608482361,-1.3653945922851562,0.06312034279108047,0.8470209240913391,-1.3369694948196411,-0.08265840262174606,0.9271357655525208,-1.289896845817566,0.03817541152238846,0.8974510431289673,-1.37906813621521
1241,0.07357439398765564,0.8184016346931458,-1.5677300691604614,-0.07442216575145721,0.8142839074134827,-1.5562649965286255,0.06055505946278572,0.9859575033187866,-1.5310337543487549,-0.07387717068195343,0.9792964458465576,-1.544678807258606,-0.0366901233792305,0.8039143681526184,-1.365333080291748,0.0631960853934288,0.8470646739006042,-1.3370417356491089,-0.08279173821210861,0.9273800849914551,-1.2899867296218872,0.03811600059270859,0.8973041772842407,-1.378953218460083
1242,0.07357439398765564,0.8184016346931458,-1.5677300691604614,-0.07442216575145721,0.8142839074134827,-1.5563054084777832,0.06061561405658722,0.9859575033187866,-1.5310337543487549,-0.07381661981344223,0.9792964458465576,-1.544678807258606,-0.037136562168598175,0.8039551377296448,-1.365569829940796,0.06287700682878494,0.8471226692199707,-1.3367880582809448,-0.0825314149260521,0.9273383617401123,-1.2905157804489136,0.03841037303209305,0.8973094820976257,-1.3786230087280273
1243,0.07357439398765564,0.8184016346931458,-1.5677300691604614,-0.07442216575145721,0.8143444657325745,-1.5563054084777832,0.06055505946278572,0.9859575033187866,-1.5310337543487549,-0.07387717068195343,0.9792964458465576,-1.544678807258606,-0.0365385040640831,0.8041338324546814,-1.3650667667388916,0.06317181140184402,0.8468760251998901,-1.3372383117675781,-0.08309229463338852,0.927606463432312,-1.2901248931884766,0.0378037765622139,0.8971223831176758,-1.378735899925232
1244,0.07357439398765564,0.8184016346931458,-1.5677704811096191,-0.07442216575145721,0.8143444657325745,-1.5562649965286255,0.06055505946278572,0.9859575033187866,-1.5310337543487549,-0.07387717068195343,0.9792964458465576,-1.544678807258606,-0.036791734397411346,0.8041079640388489,-1.3650567531585693,0.06309715658426285,0.8471183776855469,-1.3374377489089966,-0.0826847180724144,0.9275158643722534,-1.289825439453125,0.03817533701658249,0.897314190864563,-1.3789314031600952
1245,0.07357439398765564,0.8184621930122375,-1.5677300691604614,-0.07442216575145721,0.8142839074134827,-1.5562649965286255,0.06055505946278572,0.9859575033187866,-1.5310337543487549,-0.07387717068195343,0.9792964458465576,-1.5447192192077637,-0.03663402050733566,0.80389803647995,-1.3650298118591309,0.06330112367868423,0.8473243713378906,-1.3377676010131836,-0.08262576907873154,0.9275396466255188,-1.2895879745483398,0.03813909739255905,0.8972832560539246,-1.3792223930358887
1246,0.07357439398765564,0.8184016346931458,-1.5677300691604614,-0.07436161488294601,0.8142839074134827,-1.5563054084777832,0.06055505946278572,0.9859575033187866,-1.5309933423995972,-0.07387717068195343,0.9792358875274658,-1.544678807258606,-0.03676258772611618,0.8038846850395203,-1.3648536205291748,0.06328896433115005,0.8474156260490417,-1.3377255201339722,-0.08242609351873398,0.927428126335144,-1.2893247604370117,0.038242898881435394,0.8972092270851135,-1.3791583776474
1247,0.07357439398765564,0.8184016346931458,-1.5677300691604614,-0.07442216575145721,0.8142839074134827,-1.5563054084777832,0.06061561405658722,0.9859575033187866,-1.5310337543487549,-0.07381661981344223,0.9792964458465576,-1.544678807258606,-0.03698822110891342,0.8039815425872803,-1.3648549318313599,0.06305118650197983,0.8473507761955261,-1.3374217748641968,-0.08238358050584793,0.9274643659591675,-1.2898238897323608,0.03851569443941116,0.8971021771430969,-1.3787474632263184
1248,0.07357439398765564,0.8184016346931458,-1.5677300691604614,-0.07442216575145721,0.8142839074134827,-1.5563054084777832,0.06055505946278572,0.9860180616378784,-1.5309933423995972,-0.07387717068195343,0.9792358875274658,-1.544678807258606,-0.03687009960412979,0.8040847778320312,-1.365027904510498,0.06303022056818008,0.8471667766571045,-1.3372644186019897,-0.08265421539545059,0.9273566007614136,-1.290117621421814,0.03824033588171005,0.8971341848373413,-1.3788243532180786
1249,0.07351384311914444,0.8184016346931458,-1.5677300691604614,-0.07442216575145721,0.8142839074134827,-1.5562649965286255,0.06055505946278572,0.9859575033187866,-1.5310337543487549,-0.07387717068195343,0.9792964458465576,-1.544678807258606,-0.03692237287759781,0.8037999868392944,-1.3649131059646606,0.06292017549276352,0.8471324443817139,-1.3373351097106934,-0.08252692967653275,0.9272586107254028,-1.2903971672058105,0.038318343460559845,0.8970596790313721,-1.3788878917694092
1250,0.07351384311914444,0.8184016346931458,-1.5677300691604614,-0.07436161488294601,0.8143444657325745,-1.5562649965286255,0.06055505946278572,0.9859575033187866,-1.5309933423995972,-0.07381661981344223,0.9792358875274658,-1.544678807258606,-0.03683310002088547,0.8038789629936218,-1.3650546073913574,0.06325633078813553,0.8468422889709473,-1.3376092910766602,-0.08277150243520737,0.9272274971008301,-1.2905871868133545,0.03818757086992264,0.8969537019729614,-1.3787899017333984
1251,0.07357439398765564,0.8184016346931458,-1.5677300691604614,-0.07442216575145721,0.8142839074134827,-1.5563054084777832,0.06055505946278572,0.9859575033187866,-1.5310337543487549,-0.07387717068195343,0.9792964458465576,-1.544678807258606,-0.036956243216991425,0.8037624955177307,-1.3649489879608154,0.06299542635679245,0.8469247817993164,-1.3372424840927124,-0.08252041786909103,0.9272915720939636,-1.290917992591858,0.03837130218744278,0.896931529045105,-1.3785386085510254
1252,0.07357439398765564,0.8184016346931458,-1.5677300691604614,-0.07442216575145721,0.8142839074134827,-1.5562649965286255,0.06055505946278572,0.9860180616378784,-1.5310337543487549,-0.07387717068195343,0.9792358875274658,-1.544678807258606,-0.036891065537929535,0.803725004196167,-1.3646965026855469,0.06319921463727951,0.8469988107681274,-1.3376123905181885,-0.08279111236333847,0.9271960854530334,-1.2904561758041382,0.03816915303468704,0.8968644738197327,-1.378659963607788
1253,0.07357439398765564,0.8184016346931458,-1.5677704811096191,-0.07442216575145721,0.8142839074134827,-1.5562649965286255,0.06055505946278572,0.9859575033187866,-1.5309933423995972,-0.07387717068195343,0.9792964458465576,-1.544678807258606,-0.03724145144224167,0.8037803173065186,-1.3648598194122314,0.06301745027303696,0.8472219109535217,-1.337506890296936,-0.08242236822843552,0.9270743727684021,-1.2905380725860596,0.03865239769220352,0.8968998193740845,-1.3784043788909912
1254,0.07351384311914444,0.818341076374054,-1.5677300691604614,-0.07442216575145721,0.8142839074134827,-1.5562649965286255,0.06049450486898422,0.9859575033187866,-1.5309933423995972,-0.07387717068195343,0.9792964458465576,-1.544678807258606,-0.03684387356042862,0.8036447763442993,-1.3646807670593262,0.06309465318918228,0.8472591638565063,-1.3378732204437256,-0.08248712867498398,0.9271652102470398,-1.2897071838378906,0.03826529532670975,0.8970754742622375,-1.3790158033370972
1255,0.07351384311914444,0.8184016346931458,-1.5677300691604614,-0.07442216575145721,0.8142839074134827,-1.5562649965286255,0.06049450486898422,0.9859575033187866,-1.5309933423995972,-0.07387717068195343,0.9792964458465576,-1.544678807258606,-0.03634750097990036,0.803678572177887,-1.3645299673080444,0.06344828754663467,0.8471903800964355,-1.338012933731079,-0.08258350938558578,0.9273270964622498,-1.2893229722976685,0.03792833536863327,0.8970755338668823,-1.3794620037078857
1256,0.07351384311914444,0.8184016346931458,-1.5677300691604614,-0.07442216575145721,0.8142839074134827,-1.5562649965286255,0.06049450486898422,0.9859575033187866,-1.5310337543487549,-0.07387717068195343,0.9792964458465576,-1.544678807258606,-0.03627581149339676,0.803596019744873,-1.36455237865448,0.06358922272920609,0.8474107384681702,-1.3381803035736084,-0.08256550878286362,0.9273475408554077,-1.2887539863586426,0.03806202858686447,0.8971772789955139,-1.3797153234481812
1257,0.07351384311914444,0.8184016346931458,-1.5677300691604614,-0.07442216575145721,0.8143444657325745,-1.5563054084777832,0.06055505946278572,0.9858969449996948,-1.5309933423995972,-0.07387717068195343,0.9792358875274658,-1.544678807258606,-0.03616473823785782,0.8038960099220276,-1.3645029067993164,0.06377064436674118,0.8471852540969849,-1.3381315469741821,-0.08273778110742569,0.9276261329650879,-1.2888575792312622,0.03781481832265854,0.8970308899879456,-1.3795652389526367
1258,0.07351384311914444,0.8184016346931458,-1.5677300691604614,-0.07436161488294601,0.8143444657325745,-1.5563054084777832,0.06049450486898422,0.9859575033187866,-1.5309933423995972,-0.07387717068195343,0.9792358875274658,-1.544678807258606,-0.035889022052288055,0.803925096988678,-1.3645871877670288,0.06367423385381699,0.8469266295433044,-1.337713599205017,-0.08292435854673386,0.9276339411735535,-1.2892314195632935,0.03763877600431442,0.8970184922218323,-1.3797465562820435
1259,0.07357439398765564,0.8184016346931458,-1.5677300691604614,-0.07442216575145721,0.8142839074134827,-1.5562649965286255,0.06049450486898422,0.9859575033187866,-1.5309933423995972,-0.07387717068195343,0.9792964458465576,-1.544678807258606,-0.03626579791307449,0.8036367297172546,-1.3648393154144287,0.06349696964025497,0.846977949142456,-1.3375377655029297,-0.08273430913686752,0.9272453784942627,-1.289514183998108,0.037863217294216156,0.8971463441848755,-1.379811406135559
1260,0.07351384311914444,0.8184016346931458,-1.5677300691604614,-0.07442216575145721,0.8142839074134827,-1.5563054084777832,0.06049450486898422,0.9859575033187866,-1.5309933423995972,-0.07387717068195343,0.9792964458465576,-1.5447192192077637,-0.03613773733377457,0.8038231134414673,-1.3646577596664429,0.06363978236913681,0.8470885753631592,-1.337768316268921,-0.08281079679727554,0.9274766445159912,-1.2893798351287842,0.03778807073831558,0.8970863223075867,-1.3797816038131714
1261,0.07357439398765564,0.8184016346931458,-1.5677300691604614,-0.07442216575145721,0.8142839074134827,-1.5563054084777832,0.06049450486898422,0.9859575033187866,-1.5309933423995972,-0.07387717068195343,0.9792358875274658,-1.544678807258606,-0.03597532957792282,0.8039369583129883,-1.3645703792572021,0.06374000757932663,0.8470908999443054,-1.3377348184585571,-0.08290528506040573,0.92765873670578,-1.2889502048492432,0.03760886937379837,0.8970545530319214,-1.3797118663787842
1262,0.07351384311914444,0.8184016346931458,-1.5677300691604614,-0.07436161488294601,0.8143444657325745,-1.5563054084777832,0.06049450486898422,0.9859575033187866,-1.5310337543487549,-0.07387717068195343,0.9792964458465576,-1.544678807258606,-0.03626764565706253,0.8036646246910095,-1.3645050525665283,0.06347442418336868,0.8472352027893066,-1.3378819227218628,-0.08255063742399216,0.9275649785995483,-1.2892240285873413,0.03802626579999924,0.8970130681991577,-1.3798201084136963
1263,0.07351384311914444,0.8184016346931458,-1.5677300691604614,-0.07436161488294601,0.8143444657325745,-1.5563054084777832,0.060433950275182724,0.9859575033187866,-1.5309933423995972,-0.07387717068195343,0.9792964458465576,-1.544678807258606,-0.03603964298963547,0.8038502931594849,-1.3645954132080078,0.06363075226545334,0.8471875190734863,-1.3379535675048828,-0.08263801783323288,0.9276790618896484,-1.289217233657837,0.03790553659200668,0.8971356153488159,-1.3799110651016235
1264,0.07351384311914444,0.8184016346931458,-1.5677300691604614,-0.07442216575145721,0.8143444657325745,-1.5563054084777832,0.06049450486898422,0.9859575033187866,-1.5309933423995972,-0.07381661981344223,0.9792358875274658,-1.544678807258606,-0.03599793463945389,0.8039756417274475,-1.3646211624145508,0.06369749456644058,0.847156822681427,-1.3379623889923096,-0.08260896056890488,0.9276033043861389,-1.2892838716506958,0.0378752276301384,0.8970997929573059,-1.3799238204956055
1265,0.07357439398765564,0.8184016346931458,-1.5677300691604614,-0.07436161488294601,0.8143444657325745,-1.5562649965286255,0.06049450486898422,0.9859575033187866,-1.5309933423995972,-0.07387717068195343,0.9792964458465576,-1.544678807258606,-0.03617677837610245,0.8039190769195557,-1.3646738529205322,0.06359925121068954,0.8472135663032532,-1.3378713130950928,-0.0826466754078865,0.9275750517845154,-1.2891900539398193,0.038066886365413666,0.8971964716911316,-1.379827618598938
1266,0.07351384311914444,0.8184016346931458,-1.5677300691604614,-0.07442216575145721,0.8143444657325745,-1.5562649965286255,0.060433950275182724,0.9859575033187866,-1.5309933423995972,-0.07387717068195343,0.9792964458465576,-1.544678807258606,-0.03629464656114578,0.8039553165435791,-1.3647620677947998,0.06350181251764297,0.8472045063972473,-1.3378020524978638,-0.08261515945196152,0.9275258779525757,-1.2894535064697266,0.03804001957178116,0.8971104621887207,-1.3796732425689697
1267,0.07351384311914444,0.8184016346931458,-1.5677300691604614,-0.07436161488294601,0.8142839074134827,-1.5563054084777832,0.060433950275182724,0.9859575033187866,-1.5309933423995972,-0.07387717068195343,0.9792964458465576,-1.544678807258606,-0.036059312522411346,0.8041050434112549,-1.364702582359314,0.06363368779420853,0.847191333770752,-1.3377153873443604,-0.08275561779737473,0.9276705384254456,-1.2892100811004639,0.03780575841665268,0.8971418738365173,-1.3796719312667847
1268,0.07351384311914444,0.8184016346931458,-1.5677300691604614,-0.07436161488294601,0.8142839074134827,-1.5562649965286255,0.06049450486898422,0.9859575033187866,-1.5309933423995972,-0.07387717068195343,0.9792358875274658,-1.544678807258606,-0.03614484518766403,0.8040735721588135,-1.3647185564041138,0.06375245004892349,0.8471953868865967,-1.3379117250442505,-0.08280657976865768,0.9276058673858643,-1.2888846397399902,0.037891991436481476,0.8971801996231079,-1.3796992301940918
1269,0.07351384311914444,0.8184016346931458,-1.5677300691604614,-0.07436161488294601,0.8143444657325745,-1.5562649965286255,0.060433950275182724,0.9859575033187866,-1.5309933423995972,-0.07387717068195343,0.9792358875274658,-1.544678807258606,-0.035899631679058075,0.8042764067649841,-1.3647350072860718,0.06386201828718185,0.8470954298973083,-1.3378928899765015,-0.08285678178071976,0.9278842806816101,-1.2888484001159668,0.03776637464761734,0.8971949219703674,-1.3799128532409668
1270,0.07351384311914444,0.8184016346931458,-1.5677704811096191,-0.07436161488294601,0.8143444657325745,-1.5563054084777832,0.060433950275182724,0.9859575033187866,-1.530953049659729,-0.07387717068195343,0.9792964458465576,-1.544678807258606,-0.03635292500257492,0.8045015335083008,-1.3650493621826172,0.06341630965471268,0.8472344279289246,-1.3373421430587769,-0.0827217623591423,0.9278109073638916,-1.2889198064804077,0.03802456706762314,0.8975174427032471,-1.3796226978302002
1271,0.07357439398765564,0.8184016346931458,-1.5677300691604614,-0.07442216575145721,0.8143444657325745,-1.5562649965286255,0.060433950275182724,0.9859575033187866,-1.530953049659729,-0.07387717068195343,0.9792964458465576,-1.544678807258606,-0.03614766150712967,0.8043835759162903,-1.3652859926223755,0.06352762132883072,0.8472446203231812,-1.3373174667358398,-0.08283432573080063,0.9277900457382202,-1.2891789674758911,0.037875957787036896,0.8974049091339111,-1.3793721199035645
1272,0.07351384311914444,0.8184621930122375,-1.5677300691604614,-0.07436161488294601,0.8143444657325745,-1.5562649965286255,0.060433950275182724,0.9860180616378784,-1.530953049659729,-0.07387717068195343,0.9792964458465576,-1.544678807258606,-0.03571275621652603,0.8043674230575562,-1.3651692867279053,0.06377718597650528,0.847123920917511,-1.3374000787734985,-0.08321606367826462,0.9278673529624939,-1.2892882823944092,0.03749670833349228,0.8974577188491821,-1.3795865774154663
1273,0.07357439398765564,0.8184016346931458,-1.5677300691604614,-0.07442216575145721,0.8143444657325745,-1.5563054084777832,0.060373395681381226,0.9859575033187866,-1.530953049659729,-0.07387717068195343,0.9792964458465576,-1.544678807258606,-0.03643951565027237,0.8038586378097534,-1.3651812076568604,0.06329812854528427,0.8471639156341553,-1.337034821510315,-0.08257802575826645,0.9274033308029175,-1.2893686294555664,0.03807707875967026,0.8975448608398438,-1.3796783685684204
1274,0.07351384311914444,0.8184016346931458,-1.5677300691604614,-0.07436161488294601,0.8143444657325745,-1.5563054084777832,0.060433950275182724,0.9859575033187866,-1.530953049659729,-0.07393772900104523,0.9792964458465576,-1.544678807258606,-0.036082781851291656,0.8039535284042358,-1.3651504516601562,0.06346147507429123,0.84693443775177,-1.3370366096496582,-0.08304139226675034,0.927584707736969,-1.2895838022232056,0.03768882900476456,0.8974533081054688,-1.3796634674072266
1275,0.07351384311914444,0.8184016346931458,-1.5677300691604614,-0.07436161488294601,0.8143444657325745,-1.5562649965286255,0.060433950275182724,0.9859575033187866,-1.5309933423995972,-0.07387717068195343,0.9792964458465576,-1.544678807258606,-0.03669383376836777,0.8036624789237976,-1.3655318021774292,0.06315948814153671,0.8469904065132141,-1.3367600440979004,-0.08236359804868698,0.927288830280304,-1.290311336517334,0.03835802525281906,0.8974037170410156,-1.379467248916626
1276,0.07351384311914444,0.8184016346931458,-1.5677300691604614,-0.07436161488294601,0.8143444657325745,-1.5562649965286255,0.060373395681381226,0.9859575033187866,-1.530953049659729,-0.07387717068195343,0.9792964458465576,-1.544678807258606,-0.036697424948215485,0.8036391139030457,-1.3654168844223022,0.0629892572760582,0.8470342755317688,-1.3368287086486816,-0.08250018209218979,0.9272794723510742,-1.2901993989944458,0.038281120359897614,0.8974827527999878,-1.3796278238296509
1277,0.07351384311914444,0.8184016346931458,-1.5677300691604614,-0.07436161488294601,0.8143444657325745,-1.5563054084777832,0.060433950275182724,0.9859575033187866,-1.530953049659729,-0.07387717068195343,0.9792964458465576,-1.544678807258606,-0.0365540012717247,0.8041653037071228,-1.3654544353485107,0.06326920539140701,0.8468611240386963,-1.3370258808135986,-0.08285626024007797,0.9274947643280029,-1.2901955842971802,0.037998102605342865,0.8973354697227478,-1.3790003061294556
1278,0.07351384311914444,0.8184016346931458,-1.5677300691604614,-0.07436161488294601,0.8143444657325745,-1.5562649965286255,0.060433950275182724,0.9859575033187866,-1.530953049659729,-0.07387717068195343,0.9792964458465576,-1.5446385145187378,-0.03647322207689285,0.8042209148406982,-1.3653182983398438,0.06335566192865372,0.846952497959137,-1.3372712135314941,-0.08294703811407089,0.9275110960006714,-1.2898061275482178,0.03795940428972244,0.8973384499549866,-1.3790196180343628
1279,0.07351384311914444,0.8184016346931458,-1.5677704811096191,-0.07442216575145721,0.8143444657325745,-1.5562649965286255,0.060373395681381226,0.9859575033187866,-1.530953049659729,-0.07387717068195343,0.9792964458465576,-1.544678807258606,-0.03674810379743576,0.804111123085022,-1.36514151096344,0.0630653128027916,0.8473241925239563,-1.337106704711914,-0.08256908506155014,0.9275252819061279,-1.2897467613220215,0.03834054619073868,0.8975600600242615,-1.3791449069976807
1280,0.07351384311914444,0.8184621930122375,-1.5677704811096191,-0.07442216575145721,0.8143444657325745,-1.5563054084777832,0.060373395681381226,0.9860180616378784,-1.5309933423995972,-0.07387717068195343,0.9792964458465576,-1.544678807258606,-0.03615804761648178,0.8043084144592285,-1.3650765419006348,0.06328756362199783,0.8471965789794922,-1.337096929550171,-0.08300777524709702,0.927861213684082,-1.2896027565002441,0.037798114120960236,0.8973747491836548,-1.379166603088379
1281,0.07351384311914444,0.8184016346931458,-1.5677300691604614,-0.07442216575145721,0.8143444657325745,-1.5563054084777832,0.060373395681381226,0.9859575033187866,-1.530953049659729,-0.07387717068195343,0.9792964458465576,-1.544678807258606,-0.036859266459941864,0.8039057850837708,-1.3651186227798462,0.06302688270807266,0.8473476767539978,-1.3373340368270874,-0.08251550048589706,0.9274953007698059,-1.2896554470062256,0.038329608738422394,0.897347092628479,-1.3791450262069702
1282,0.07351384311914444,0.8184621930122375,-1.5677300691604614,-0.07442216575145721,0.8143444657325745,-1.5562649965286255,0.060373395681381226,0.9859575033187866,-1.530953049659729,-0.07381661981344223,0.9792964458465576,-1.544678807258606,-0.03675825148820877,0.8040087819099426,-1.3651387691497803,0.06315968185663223,0.8473263382911682,-1.337468147277832,-0.08255747705698013,0.9276376962661743,-1.2897590398788452,0.03832235187292099,0.8974044919013977,-1.3792492151260376
1283,0.07345328480005264,0.8184621930122375,-1.5677300691604614,-0.07436161488294601,0.8143444657325745,-1.5562649965286255,0.060373395681381226,0.9859575033187866,-1.530953049659729,-0.07393772900104523,0.9792964458465576,-1.544678807258606,-0.03677087277173996,0.8040027618408203,-1.3651108741760254,0.06314954906702042,0.8470343351364136,-1.3374227285385132,-0.08268461376428604,0.9275013208389282,-1.2902418375015259,0.03818214684724808,0.897307276725769,-1.3791024684906006
1284,0.07351384311914444,0.8184621930122375,-1.5677300691604614,-0.07442216575145721,0.8143444657325745,-1.5563054084777832,0.060433950275182724,0.9859575033187866,-1.5309933423995972,-0.07387717068195343,0.9792964458465576,-1.544678807258606,-0.037305764853954315,0.8041596412658691,-1.365147352218628,0.06294938176870346,0.8471132516860962,-1.3372279405593872,-0.08257447928190231,0.927478551864624,-1.2904398441314697,0.03862795978784561,0.8972530364990234,-1.3784914016723633
1285,0.07345328480005264,0.8184016346931458,-1.5677704811096191,-0.07442216575145721,0.8143444657325745,-1.5562649965286255,0.060433950275182724,0.9860180616378784,-1.530953049659729,-0.07387717068195343,0.9792964458465576,-1.544678807258606,-0.03715061396360397,0.804373025894165,-1.3652206659317017,0.06290913373231888,0.8470096588134766,-1.3370294570922852,-0.0828171893954277,0.9275306463241577,-1.2904558181762695,0.03830995410680771,0.8973267078399658,-1.3783522844314575
1286,0.07345328480005264,0.8184016346931458,-1.5677704811096191,-0.07442216575145721,0.8143444657325745,-1.5562649965286255,0.060373395681381226,0.9859575033187866,-1.530953049659729,-0.07387717068195343,0.9792964458465576,-1.544678807258606,-0.03686506301164627,0.8042638301849365,-1.3651403188705444,0.06302493065595627,0.8471274375915527,-1.337286353111267,-0.0829339548945427,0.9275821447372437,-1.2900787591934204,0.03802398592233658,0.8973362445831299,-1.378656268119812
1287,0.07351384311914444,0.8184016346931458,-1.5677300691604614,-0.07442216575145721,0.8143444657325745,-1.5562649965286255,0.060373395681381226,0.9859575033187866,-1.530953049659729,-0.07387717068195343,0.9792964458465576,-1.544678807258606,-0.036647580564022064,0.8044106960296631,-1.3652012348175049,0.06315835565328598,0.8472848534584045,-1.3372156620025635,-0.08303170651197433,0.9276900887489319,-1.2898503541946411,0.038008712232112885,0.8974136114120483,-1.3784513473510742
1288,0.07345328480005264,0.8184621930122375,-1.5677300691604614,-0.07442216575145721,0.8143444657325745,-1.5563054084777832,0.060373395681381226,0.9859575033187866,-1.530953049659729,-0.07387717068195343,0.9792358875274658,-1.544678807258606,-0.037153683602809906,0.8039977550506592,-1.365281105041504,0.06279566138982773,0.8475034832954407,-1.3371561765670776,-0.08257367461919785,0.9275010824203491,-1.2899749279022217,0.03829442709684372,0.8975304365158081,-1.3786996603012085
1289,0.07345328480005264,0.8184621930122375,-1.5677704811096191,-0.07442216575145721,0.8144050240516663,-1.5562649965286255,0.060433950275182724,0.9858969449996948,-1.530953049659729,-0.07387717068195343,0.9792964458465576,-1.544678807258606,-0.03726910799741745,0.8039727210998535,-1.3651807308197021,0.06279326230287552,0.8472250699996948,-1.3370749950408936,-0.0825050100684166,0.9274019598960876,-1.2904340028762817,0.03862134367227554,0.8973906636238098,-1.3786306381225586
1290,0.07345328480005264,0.8184621930122375,-1.5677704811096191,-0.07442216575145721,0.8144050240516663,-1.5562649965286255,0.060373395681381226,0.9859575033187866,-1.530953049659729,-0.07387717068195343,0.9792964458465576,-1.544678807258606,-0.03695378452539444,0.8040542006492615,-1.3652724027633667,0.06292455643415451,0.8468384742736816,-1.3370593786239624,-0.08280647546052933,0.9273939728736877,-1.2907195091247559,0.0382402166724205,0.897283673286438,-1.3786574602127075
1291,0.07345328480005264,0.8184621930122375,-1.5677704811096191,-0.07442216575145721,0.8143444657325745,-1.5562649965286255,0.060433950275182724,0.9859575033187866,-1.5309933423995972,-0.07387717068195343,0.9792964458465576,-1.544678807258606,-0.03726387768983841,0.8040313720703125,-1.3653160333633423,0.06283367425203323,0.8468700647354126,-1.3369241952896118,-0.08275715261697769,0.9273034930229187,-1.2908192873001099,0.03827881067991257,0.8971601128578186,-1.3785122632980347
1292,0.07345328480005264,0.8184621930122375,-1.5677300691604614,-0.07436161488294601,0.8143444657325745,-1.5562649965286255,0.060433950275182724,0.9859575033187866,-1.530953049659729,-0.07387717068195343,0.9792964458465576,-1.544678807258606,-0.036698587238788605,0.8041417598724365,-1.3649795055389404,0.06330633908510208,0.8469260334968567,-1.3375203609466553,-0.08313728123903275,0.9274309277534485,-1.2904419898986816,0.037907011806964874,0.8970476984977722,-1.3784924745559692
1293,0.07345328480005264,0.8184621930122375,-1.5677300691604614,-0.07442216575145721,0.8143444657325745,-1.5563054084777832,0.060373395681381226,0.9858969449996948,-1.530953049659729,-0.07387717068195343,0.9792964458465576,-1.544678807258606,-0.03670027107000351,0.8041093349456787,-1.364739179611206,0.06334573775529861,0.8471010327339172,-1.3378444910049438,-0.08287622779607773,0.9275099039077759,-1.2898796796798706,0.037967048585414886,0.8971285223960876,-1.3788270950317383
1294,0.07345328480005264,0.8184016346931458,-1.5677300691604614,-0.07442216575145721,0.8143444657325745,-1.5563054084777832,0.060373395681381226,0.9859575033187866,-1.5309126377105713,-0.07387717068195343,0.9792964458465576,-1.544678807258606,-0.036534808576107025,0.8039997816085815,-1.3645963668823242,0.06326655298471451,0.8473414778709412,-1.3377963304519653,-0.08267524093389511,0.9274424314498901,-1.289186954498291,0.0380505695939064,0.8973925709724426,-1.379320502281189
1295,0.07345328480005264,0.8184621930122375,-1.5677300691604614,-0.07442216575145721,0.8143444657325745,-1.5562649965286255,0.060373395681381226,0.9859575033187866,-1.530953049659729,-0.07381661981344223,0.9792358875274658,-1.544678807258606,-0.03598397225141525,0.8039332032203674,-1.3645248413085938,0.06353277713060379,0.8472805619239807,-1.3376628160476685,-0.0828804150223732,0.9275850057601929,-1.2895278930664062,0.03777993470430374,0.8971476554870605,-1.3794728517532349
1296,0.07345328480005264,0.8184621930122375,-1.5677704811096191,-0.07436161488294601,0.8143444657325745,-1.5562649965286255,0.06031283736228943,0.9859575033187866,-1.530953049659729,-0.07393772900104523,0.9792964458465576,-1.544678807258606,-0.03629188984632492,0.8034898042678833,-1.3648148775100708,0.0633082464337349,0.8470785617828369,-1.337380051612854,-0.08265795558691025,0.9271141290664673,-1.289647102355957,0.03809691220521927,0.8972974419593811,-1.3799246549606323
1297,0.07345328480005264,0.8184621930122375,-1.5677300691604614,-0.07442216575145721,0.8144050240516663,-1.5563054084777832,0.060373395681381226,0.9859575033187866,-1.530953049659729,-0.07387717068195343,0.9792964458465576,-1.544678807258606,-0.036962397396564484,0.8034088015556335,-1.3652896881103516,0.06304889172315598,0.8469587564468384,-1.3369758129119873,-0.08222963660955429,0.9269776940345764,-1.2899833917617798,0.038426123559474945,0.8973370790481567,-1.3797073364257812
1298,0.07345328480005264,0.8184621930122375,-1.5677704811096191,-0.07436161488294601,0.8143444657325745,-1.5562649965286255,0.060373395681381226,0.9858969449996948,-1.530953049659729,-0.07393772900104523,0.9792964458465576,-1.544678807258606,-0.03663007169961929,0.8040781021118164,-1.3654558658599854,0.06321058422327042,0.8467645049095154,-1.3368256092071533,-0.08288159221410751,0.9273953437805176,-1.290087103843689,0.038018323481082916,0.8972238898277283,-1.379237413406372
1299,0.07345328480005264,0.8184621930122375,-1.5677704811096191,-0.07442216575145721,0.8143444657325745,-1.5562649965286255,0.060373395681381226,0.9859575033187866,-1.530953049659729,-0.07381661981344223,0.9792358875274658,-1.544678807258606,-0.0360943004488945,0.8041849732398987,-1.365211844444275,0.06347519904375076,0.8466175198554993,-1.3370640277862549,-0.08322354406118393,0.9275274872779846,-1.290013074874878,0.037545375525951385,0.8971365094184875,-1.379144549369812
1300,0.07345328480005264,0.8184016346931458,-1.5677300691604614,-0.07436161488294601,0.8143444657325745,-1.5562649965286255,0.060373395681381226,0.9859575033187866,-1.530953049659729,-0.07387717068195343,0.9792964458465576,-1.544678807258606,-0.035941384732723236,0.8038590550422668,-1.3649508953094482,0.0635276511311531,0.8469072580337524,-1.3373255729675293,-0.08315280824899673,0.927513062953949,-1.2895463705062866,0.03758124262094498,0.8972566723823547,-1.3796727657318115
1301,0.07345328480005264,0.8184016346931458,-1.5677704811096191,-0.07436161488294601,0.8143444657325745,-1.5563054084777832,0.06031283736228943,0.9859575033187866,-1.5309126377105713,-0.07387717068195343,0.9792964458465576,-1.544678807258606,-0.036292292177677155,0.8040977120399475,-1.3651528358459473,0.06340045481920242,0.8471349477767944,-1.3371795415878296,-0.08276962488889694,0.9274500012397766,-1.2893097400665283,0.03794793039560318,0.8975569605827332,-1.379572868347168
1302,0.07339273393154144,0.8184621930122375,-1.5677300691604614,-0.07442216575145721,0.8143444657325745,-1.5562649965286255,0.060373395681381226,0.9859575033187866,-1.530953049659729,-0.07387717068195343,0.9792964458465576,-1.544678807258606,-0.03672277182340622,0.8037581443786621,-1.3654805421829224,0.06318368762731552,0.8472374081611633,-1.3369766473770142,-0.08251824229955673,0.9272856712341309,-1.2897589206695557,0.03825473040342331,0.8975262641906738,-1.379515290260315
1303,0.07339273393154144,0.8184016346931458,-1.5677300691604614,-0.07442216575145721,0.8143444657325745,-1.5562649965286255,0.060373395681381226,0.9859575033187866,-1.5309126377105713,-0.07387717068195343,0.9792964458465576,-1.544678807258606,-0.03678823262453079,0.8035722374916077,-1.3654553890228271,0.06300317496061325,0.8470830917358398,-1.3368693590164185,-0.08249296993017197,0.9271122813224792,-1.2900419235229492,0.03830815106630325,0.8974277377128601,-1.3793416023254395
1304,0.07339273393154144,0.8184016346931458,-1.5677300691604614,-0.07442216575145721,0.8143444657325745,-1.5562649965286255,0.060373395681381226,0.9859575033187866,-1.5309126377105713,-0.07387717068195343,0.9792964458465576,-1.544678807258606,-0.036830998957157135,0.803866982460022,-1.3655309677124023,0.06301189213991165,0.8469853401184082,-1.3367081880569458,-0.08269157260656357,0.9272061586380005,-1.290022850036621,0.03810610622167587,0.8974509239196777,-1.3791934251785278
1305,0.07339273393154144,0.8184016346931458,-1.5677704811096191,-0.07442216575145721,0.8143444657325745,-1.5563054084777832,0.06031283736228943,0.9859575033187866,-1.5309126377105713,-0.07387717068195343,0.9792964458465576,-1.544678807258606,-0.03657301515340805,0.8040367364883423,-1.365310788154602,0.06309432536363602,0.8468829989433289,-1.336902379989624,-0.0830235406756401,0.9274349808692932,-1.2898619174957275,0.037819720804691315,0.8973732590675354,-1.3791162967681885
1306,0.07339273393154144,0.8184016346931458,-1.5677300691604614,-0.07442216575145721,0.8143444657325745,-1.5563054084777832,0.060373395681381226,0.9858969449996948,-1.530953049659729,-0.07393772900104523,0.9792358875274658,-1.544678807258606,-0.036799557507038116,0.8038833737373352,-1.3651976585388184,0.06309471279382706,0.8472986817359924,-1.3371261358261108,-0.08274621516466141,0.9275161027908325,-1.2896652221679688,0.03811801224946976,0.8974010348320007,-1.3790960311889648
1307,0.07339273393154144,0.8184621930122375,-1.5677704811096191,-0.07442216575145721,0.8143444657325745,-1.5562649965286255,0.06031283736228943,0.9858969449996948,-1.530953049659729,-0.07387717068195343,0.9792964458465576,-1.5447192192077637,-0.03645310550928116,0.8038569688796997,-1.3649108409881592,0.06310003250837326,0.8473248481750488,-1.3372223377227783,-0.08274989575147629,0.9277195334434509,-1.2895784378051758,0.03807630389928818,0.8973708748817444,-1.3793222904205322
